;This Gcode has been generated specifically for the LulzBot Mini
;Basic settings: Layer height: 0.25 Walls: 1 Fill: 20
;Filament Diameter: 2.85
;Nozzle Size: 0.5
G26                          ; clear potential 'probe fail' condition
G21                          ; metric values
G90                          ; absolute positioning
M82                          ; set extruder to absolute mode
M107                         ; start with the fan off
G92 E0                       ; set extruder position to 0
M140 S60; get bed heating up
G28                          ; home all
M109 R140                    ; set to cleaning temp and wait
G1 Z150 E-30 F75             ; suck up XXmm of filament
M109 R140                    ; heat up rest of way
G1 X45 Y174 F11520           ; move behind scraper
G1 Z0  F1200                 ; CRITICAL: set Z to height of top of scraper
G1 X45 Y174 Z-.5 F4000       ; wiping ; plunge into wipe pad
G1 X55 Y172 Z-.5 F4000       ; wiping
G1 X45 Y174 Z0 F4000         ; wiping
G1 X55 Y172 F4000            ; wiping
G1 X45 Y174 F4000            ; wiping
G1 X55 Y172 F4000            ; wiping
G1 X45 Y174 F4000            ; wiping
G1 X55 Y172 F4000            ; wiping
G1 X60 Y174 F4000            ; wiping
G1 X80 Y172 F4000            ; wiping
G1 X60 Y174 F4000            ; wiping
G1 X80 Y172 F4000            ; wiping
G1 X60 Y174 F4000            ; wiping
G1 X90 Y172 F4000            ; wiping
G1 X80 Y174 F4000            ; wiping
G1 X100 Y172 F4000           ; wiping
G1 X80 Y174 F4000            ; wiping
G1 X100 Y172 F4000           ; wiping
G1 X80 Y174 F4000            ; wiping
G1 X100 Y172 F4000           ; wiping
G1 X110 Y174 F4000           ; wiping
G1 X100 Y172 F4000           ; wiping
G1 X110 Y174 F4000           ; wiping
G1 X100 Y172 F4000           ; wiping
G1 X110 Y174 F4000           ; wiping
G1 X115 Y172 Z-0.5 F1000     ; wipe slower and bury noz in cleanish area
G1 Z10                       ; raise z
G28 X0 Y0                    ; home x and y
M109 R140                    ; set to probing temp
M204 S300                    ; Set probing acceleration
G29                          ; Probe
M204 S2000                   ; Restore standard acceleration
G1 X5 Y15 Z10 F5000          ; get out the way
G4 S1                        ; pause
M400                         ; clear buffer
M109 R210    ; set extruder temp and wait
G4 S15                       ; wait for bed to temp up
G1 Z2 E0 F75                 ; extrude filament back into nozzle
M140 S60; get bed temping up during first layer

;Layer count: 39
;LAYER:0
M107
G0 F10500 X34.188 Y57.188 Z0.425
;TYPE:SKIRT
G1 F900 X125.812 Y57.188 E3.81504
G1 X125.812 Y98.812 E5.54817
G1 X34.188 Y98.812 E9.36321
G1 X34.188 Y57.188 E11.09635
G1 F600 E9.34635
G1 Z0.525
G0 F10500 X38.437 Y61.437
;TYPE:WALL-INNER
G1 Z0.425
G1 F600 E11.09635
G1 F900 X121.563 Y61.437 E14.55754
G1 X121.563 Y94.563 E15.93684
G1 X38.437 Y94.563 E19.39804
G1 X38.437 Y61.437 E20.77734
G0 F10500 X37.812 Y60.812
;TYPE:WALL-OUTER
G1 F900 X122.188 Y60.812 E24.29058
G1 X122.188 Y95.188 E25.72193
G1 X37.812 Y95.188 E29.23517
G1 X37.812 Y60.812 E30.66652
G0 F10500 X38.225 Y61.135
G0 X38.656 Y62.079
;TYPE:SKIN
G1 F900 X70.919 Y94.343 E32.56635
G0 F10500 X70.036 Y94.343
G1 F900 X38.656 Y62.963 E34.41416
G0 F10500 X38.656 Y63.847
G1 F900 X69.152 Y94.343 E36.20992
G0 F10500 X68.268 Y94.343
G1 F900 X38.656 Y64.731 E37.95362
G0 F10500 X38.656 Y65.615
G1 F900 X67.384 Y94.343 E39.64527
G0 F10500 X66.500 Y94.343
G1 F900 X38.656 Y66.499 E41.28486
G0 F10500 X38.656 Y67.383
G1 F900 X65.616 Y94.343 E42.87240
G0 F10500 X64.732 Y94.343
G1 F900 X38.656 Y68.266 E44.40791
G0 F10500 X38.656 Y69.150
G1 F900 X63.848 Y94.343 E45.89137
G0 F10500 X62.965 Y94.343
G1 F900 X38.656 Y70.034 E47.32280
G0 F10500 X38.656 Y70.918
G1 F900 X62.081 Y94.343 E48.70218
G0 F10500 X61.197 Y94.343
G1 F900 X38.656 Y71.802 E50.02951
G0 F10500 X38.656 Y72.686
G1 F900 X60.313 Y94.343 E51.30478
G0 F10500 X71.803 Y94.343
G1 F900 X39.116 Y61.656 E53.22955
G0 F10500 X38.656 Y73.570
G1 F900 X59.429 Y94.343 E54.45277
G0 F10500 X58.545 Y94.343
G1 F900 X38.656 Y74.454 E55.62393
G0 F10500 X38.656 Y75.337
G1 F900 X57.661 Y94.343 E56.74307
G0 F10500 X56.777 Y94.343
G1 F900 X38.656 Y76.221 E57.81016
G0 F10500 X38.656 Y77.105
G1 F900 X55.893 Y94.343 E58.82518
G0 F10500 X55.010 Y94.343
G1 F900 X38.656 Y77.989 E59.78819
G0 F10500 X38.656 Y78.873
G1 F900 X54.126 Y94.343 E60.69914
G0 F10500 X53.242 Y94.343
G1 F900 X38.656 Y79.757 E61.55804
G0 F10500 X38.656 Y80.641
G1 F900 X52.358 Y94.343 E62.36488
G0 F10500 X51.474 Y94.343
G1 F900 X38.656 Y81.525 E63.11966
G0 F10500 X38.656 Y82.409
G1 F900 X50.590 Y94.343 E63.82240
G0 F10500 X49.706 Y94.343
G1 F900 X38.656 Y83.292 E64.47311
G0 F10500 X38.656 Y84.176
G1 F900 X48.822 Y94.343 E65.07176
G0 F10500 X47.939 Y94.343
G1 F900 X38.656 Y85.060 E65.61839
G0 F10500 X38.656 Y85.944
G1 F900 X47.055 Y94.343 E66.11296
G0 F10500 X46.171 Y94.343
G1 F900 X38.656 Y86.828 E66.55548
G0 F10500 X38.656 Y87.712
G1 F900 X45.287 Y94.343 E66.94595
G0 F10500 X44.403 Y94.343
G1 F900 X38.656 Y88.596 E67.28436
G0 F10500 X38.656 Y89.480
G1 F900 X43.519 Y94.343 E67.57072
G0 F10500 X42.635 Y94.343
G1 F900 X38.656 Y90.364 E67.80502
G0 F10500 X38.656 Y91.247
G1 F900 X41.751 Y94.343 E67.98730
G0 F10500 X40.867 Y94.343
G1 F900 X38.656 Y92.131 E68.11752
G0 F10500 X38.656 Y93.015
G1 F900 X39.984 Y94.343 E68.19572
G0 F10500 X39.100 Y94.343
G1 F900 X38.656 Y93.899 E68.22187
G0 F10500 X40.000 Y61.656
G1 F900 X72.687 Y94.343 E70.14664
G0 F10500 X73.571 Y94.343
G1 F900 X40.884 Y61.656 E72.07141
G0 F10500 X41.768 Y61.656
G1 F900 X74.455 Y94.343 E73.99619
G0 F10500 X75.339 Y94.343
G1 F900 X42.651 Y61.656 E75.92099
G0 F10500 X43.535 Y61.656
G1 F900 X76.223 Y94.343 E77.84579
G0 F10500 X77.107 Y94.343
G1 F900 X44.419 Y61.656 E79.77059
G0 F10500 X45.303 Y61.656
G1 F900 X77.991 Y94.343 E81.69539
G0 F10500 X78.874 Y94.343
G1 F900 X46.187 Y61.656 E83.62017
G0 F10500 X47.071 Y61.656
G1 F900 X79.758 Y94.343 E85.54494
G0 F10500 X80.642 Y94.343
G1 F900 X47.955 Y61.656 E87.46971
G0 F10500 X48.839 Y61.656
G1 F900 X81.526 Y94.343 E89.39448
G0 F10500 X82.410 Y94.343
G1 F900 X49.723 Y61.656 E91.31926
G0 F10500 X50.606 Y61.656
G1 F900 X83.294 Y94.343 E93.24406
G0 F10500 X84.178 Y94.343
G1 F900 X51.490 Y61.656 E95.16886
G0 F10500 X52.374 Y61.656
G1 F900 X85.062 Y94.343 E97.09366
G0 F10500 X85.946 Y94.343
G1 F900 X53.258 Y61.656 E99.01846
G0 F10500 X54.142 Y61.656
G1 F900 X86.829 Y94.343 E100.94324
G0 F10500 X87.713 Y94.343
G1 F900 X55.026 Y61.656 E102.86801
G0 F10500 X55.910 Y61.656
G1 F900 X88.597 Y94.343 E104.79278
G0 F10500 X89.481 Y94.343
G1 F900 X56.794 Y61.656 E106.71755
G0 F10500 X57.677 Y61.656
G1 F900 X90.365 Y94.343 E108.64236
G0 F10500 X91.249 Y94.343
G1 F900 X58.561 Y61.656 E110.56716
G0 F10500 X59.445 Y61.656
G1 F900 X92.133 Y94.343 E112.49196
G0 F10500 X93.017 Y94.343
G1 F900 X60.329 Y61.656 E114.41676
G0 F10500 X61.213 Y61.656
G1 F900 X93.900 Y94.343 E116.34154
G0 F10500 X94.784 Y94.343
G1 F900 X62.097 Y61.656 E118.26631
G0 F10500 X62.981 Y61.656
G1 F900 X95.668 Y94.343 E120.19108
G0 F10500 X96.552 Y94.343
G1 F900 X63.865 Y61.656 E122.11585
G0 F10500 X64.749 Y61.656
G1 F900 X97.436 Y94.343 E124.04063
G0 F10500 X98.320 Y94.343
G1 F900 X65.632 Y61.656 E125.96543
G0 F10500 X66.516 Y61.656
G1 F900 X99.204 Y94.343 E127.89023
G0 F10500 X100.088 Y94.343
G1 F900 X67.400 Y61.656 E129.81503
G0 F10500 X68.284 Y61.656
G1 F900 X100.972 Y94.343 E131.73983
G0 F10500 X101.855 Y94.343
G1 F900 X69.168 Y61.656 E133.66461
G0 F10500 X70.052 Y61.656
G1 F900 X102.739 Y94.343 E135.58938
G0 F10500 X103.623 Y94.343
G1 F900 X70.936 Y61.656 E137.51415
G0 F10500 X71.820 Y61.656
G1 F900 X104.507 Y94.343 E139.43892
G0 F10500 X105.391 Y94.343
G1 F900 X72.704 Y61.656 E141.36370
G0 F10500 X73.587 Y61.656
G1 F900 X106.275 Y94.343 E143.28850
G0 F10500 X107.159 Y94.343
G1 F900 X74.471 Y61.656 E145.21330
G0 F10500 X75.355 Y61.656
G1 F900 X108.043 Y94.343 E147.13810
G0 F10500 X108.926 Y94.343
G1 F900 X76.239 Y61.656 E149.06287
G0 F10500 X77.123 Y61.656
G1 F900 X109.810 Y94.343 E150.98765
G0 F10500 X110.694 Y94.343
G1 F900 X78.007 Y61.656 E152.91242
G0 F10500 X78.891 Y61.656
G1 F900 X111.578 Y94.343 E154.83719
G0 F10500 X112.462 Y94.343
G1 F900 X79.775 Y61.656 E156.76196
G0 F10500 X80.658 Y61.656
G1 F900 X113.346 Y94.343 E158.68677
G0 F10500 X114.230 Y94.343
G1 F900 X81.542 Y61.656 E160.61157
G0 F10500 X82.426 Y61.656
G1 F900 X115.114 Y94.343 E162.53637
G0 F10500 X115.998 Y94.343
G1 F900 X83.310 Y61.656 E164.46117
G0 F10500 X84.194 Y61.656
G1 F900 X116.881 Y94.343 E166.38594
G0 F10500 X117.765 Y94.343
G1 F900 X85.078 Y61.656 E168.31072
G0 F10500 X85.962 Y61.656
G1 F900 X118.649 Y94.343 E170.23549
G0 F10500 X119.533 Y94.343
G1 F900 X86.846 Y61.656 E172.16026
G0 F10500 X87.730 Y61.656
G1 F900 X120.417 Y94.343 E174.08503
G0 F10500 X121.301 Y94.343
G1 F900 X88.613 Y61.656 E176.00984
G0 F10500 X89.497 Y61.656
G1 F900 X121.343 Y93.501 E177.88506
G0 F10500 X121.343 Y92.617
G1 F900 X90.381 Y61.656 E179.70822
G0 F10500 X91.265 Y61.656
G1 F900 X121.343 Y91.733 E181.47934
G0 F10500 X121.343 Y90.849
G1 F900 X92.149 Y61.656 E183.19839
G0 F10500 X93.033 Y61.656
G1 F900 X121.343 Y89.965 E184.86540
G0 F10500 X121.343 Y89.082
G1 F900 X93.917 Y61.656 E186.48038
G0 F10500 X94.801 Y61.656
G1 F900 X121.343 Y88.198 E188.04330
G0 F10500 X121.343 Y87.314
G1 F900 X95.684 Y61.656 E189.55420
G0 F10500 X96.568 Y61.656
G1 F900 X121.343 Y86.430 E191.01305
G0 F10500 X121.343 Y85.546
G1 F900 X97.452 Y61.656 E192.41984
G0 F10500 X98.336 Y61.656
G1 F900 X121.343 Y84.662 E193.77457
G0 F10500 X121.343 Y83.778
G1 F900 X99.220 Y61.656 E195.07726
G0 F10500 X100.104 Y61.656
G1 F900 X121.343 Y82.894 E196.32788
G0 F10500 X121.343 Y82.010
G1 F900 X100.988 Y61.656 E197.52646
G0 F10500 X101.872 Y61.656
G1 F900 X121.343 Y81.127 E198.67301
G0 F10500 X121.343 Y80.243
G1 F900 X102.756 Y61.656 E199.76750
G0 F10500 X103.639 Y61.656
G1 F900 X121.343 Y79.359 E200.80997
G0 F10500 X121.343 Y78.475
G1 F900 X104.523 Y61.656 E201.80039
G0 F10500 X105.407 Y61.656
G1 F900 X121.343 Y77.591 E202.73875
G0 F10500 X121.343 Y76.707
G1 F900 X106.291 Y61.656 E203.62505
G0 F10500 X107.175 Y61.656
G1 F900 X121.343 Y75.823 E204.45931
G0 F10500 X121.343 Y74.939
G1 F900 X108.059 Y61.656 E205.24151
G0 F10500 X108.943 Y61.656
G1 F900 X121.343 Y74.056 E205.97168
G0 F10500 X121.343 Y73.172
G1 F900 X109.827 Y61.656 E206.64980
G0 F10500 X110.711 Y61.656
G1 F900 X121.343 Y72.288 E207.27586
G0 F10500 X121.343 Y71.404
G1 F900 X111.594 Y61.656 E207.84990
G0 F10500 X112.478 Y61.656
G1 F900 X121.343 Y70.520 E208.37189
G0 F10500 X121.343 Y69.636
G1 F900 X113.362 Y61.656 E208.84182
G0 F10500 X114.246 Y61.656
G1 F900 X121.343 Y68.752 E209.25970
G0 F10500 X121.343 Y67.868
G1 F900 X115.130 Y61.656 E209.62552
G0 F10500 X116.014 Y61.656
G1 F900 X121.343 Y66.984 E209.93929
G0 F10500 X121.343 Y66.101
G1 F900 X116.898 Y61.656 E210.20103
G0 F10500 X117.782 Y61.656
G1 F900 X121.343 Y65.217 E210.41072
G0 F10500 X121.343 Y64.333
G1 F900 X118.665 Y61.656 E210.56839
G0 F10500 X119.549 Y61.656
G1 F900 X121.343 Y63.449 E210.67400
G0 F10500 X121.343 Y62.565
G1 F900 X120.433 Y61.656 E210.72755
;LAYER:1
M106 S191
G0 F10500 X121.750 Y61.250 Z0.675
;TYPE:WALL-INNER
G1 F1140 X121.750 Y94.750 E211.38396
G1 X38.250 Y94.750 E213.02009
G1 X38.250 Y61.250 E213.67650
G1 X121.750 Y61.250 E215.31262
G0 F10500 X122.250 Y60.750
;TYPE:WALL-OUTER
G1 F1080 X122.250 Y95.250 E215.98863
G1 X37.750 Y95.250 E217.64435
G1 X37.750 Y60.750 E218.32035
G1 X122.250 Y60.750 E219.97608
G0 F10500 X121.362 Y61.424
;TYPE:SKIN
G1 F1380 X88.211 Y94.575 E220.89471
G0 F10500 X88.918 Y94.575
G1 F1380 X121.574 Y61.919 E221.79962
G0 F10500 X121.574 Y62.627
G1 F1380 X89.625 Y94.575 E222.68494
G0 F10500 X90.332 Y94.575
G1 F1380 X121.574 Y63.334 E223.55066
G0 F10500 X121.574 Y64.041
G1 F1380 X91.039 Y94.575 E224.39678
G0 F10500 X91.747 Y94.575
G1 F1380 X121.574 Y64.748 E225.22331
G0 F10500 X121.574 Y65.455
G1 F1380 X92.454 Y94.575 E226.03024
G0 F10500 X93.161 Y94.575
G1 F1380 X121.574 Y66.162 E226.81758
G0 F10500 X121.574 Y66.869
G1 F1380 X93.868 Y94.575 E227.58533
G0 F10500 X94.575 Y94.575
G1 F1380 X121.574 Y67.576 E228.33349
G0 F10500 X121.574 Y68.283
G1 F1380 X95.282 Y94.575 E229.06205
G0 F10500 X95.989 Y94.575
G1 F1380 X121.574 Y68.990 E229.77103
G0 F10500 X121.574 Y69.698
G1 F1380 X96.696 Y94.575 E230.46040
G0 F10500 X97.403 Y94.575
G1 F1380 X121.574 Y70.405 E231.13017
G0 F10500 X121.574 Y71.112
G1 F1380 X98.111 Y94.575 E231.78035
G0 F10500 X98.818 Y94.575
G1 F1380 X121.574 Y71.819 E232.41093
G0 F10500 X121.574 Y72.526
G1 F1380 X99.525 Y94.575 E233.02192
G0 F10500 X87.504 Y94.575
G1 F1380 X120.655 Y61.424 E233.94055
G0 F10500 X121.574 Y73.233
G1 F1380 X100.232 Y94.575 E234.53195
G0 F10500 X100.939 Y94.575
G1 F1380 X121.574 Y73.940 E235.10376
G0 F10500 X121.574 Y74.647
G1 F1380 X101.646 Y94.575 E235.65597
G0 F10500 X102.353 Y94.575
G1 F1380 X121.574 Y75.354 E236.18860
G0 F10500 X121.574 Y76.062
G1 F1380 X103.060 Y94.575 E236.70162
G0 F10500 X103.767 Y94.575
G1 F1380 X121.574 Y76.769 E237.19505
G0 F10500 X121.574 Y77.476
G1 F1380 X104.475 Y94.575 E237.66887
G0 F10500 X105.182 Y94.575
G1 F1380 X121.574 Y78.183 E238.12310
G0 F10500 X121.574 Y78.890
G1 F1380 X105.889 Y94.575 E238.55774
G0 F10500 X106.596 Y94.575
G1 F1380 X121.574 Y79.597 E238.97279
G0 F10500 X121.574 Y80.304
G1 F1380 X107.303 Y94.575 E239.36825
G0 F10500 X108.010 Y94.575
G1 F1380 X121.574 Y81.011 E239.74411
G0 F10500 X121.574 Y81.718
G1 F1380 X108.717 Y94.575 E240.10039
G0 F10500 X109.424 Y94.575
G1 F1380 X121.574 Y82.426 E240.43706
G0 F10500 X121.574 Y83.133
G1 F1380 X110.131 Y94.575 E240.75414
G0 F10500 X110.838 Y94.575
G1 F1380 X121.574 Y83.840 E241.05162
G0 F10500 X121.574 Y84.547
G1 F1380 X111.546 Y94.575 E241.32951
G0 F10500 X112.253 Y94.575
G1 F1380 X121.574 Y85.254 E241.58780
G0 F10500 X121.574 Y85.961
G1 F1380 X112.960 Y94.575 E241.82649
G0 F10500 X113.667 Y94.575
G1 F1380 X121.574 Y86.668 E242.04560
G0 F10500 X121.574 Y87.375
G1 F1380 X114.374 Y94.575 E242.24512
G0 F10500 X115.081 Y94.575
G1 F1380 X121.574 Y88.082 E242.42504
G0 F10500 X121.574 Y88.789
G1 F1380 X115.788 Y94.575 E242.58538
G0 F10500 X116.495 Y94.575
G1 F1380 X121.574 Y89.497 E242.72610
G0 F10500 X121.574 Y90.204
G1 F1380 X117.202 Y94.575 E242.84724
G0 F10500 X117.910 Y94.575
G1 F1380 X121.574 Y90.911 E242.94877
G0 F10500 X121.574 Y91.618
G1 F1380 X118.617 Y94.575 E243.03071
G0 F10500 X119.324 Y94.575
G1 F1380 X121.574 Y92.325 E243.09306
G0 F10500 X121.574 Y93.032
G1 F1380 X120.031 Y94.575 E243.13582
G0 F10500 X120.738 Y94.575
G1 F1380 X121.574 Y93.739 E243.15898
G0 F10500 X121.574 Y94.446
G1 F1380 X121.445 Y94.575 E243.16256
G0 F10500 X119.948 Y61.424
G1 F1380 X86.797 Y94.575 E244.08119
G0 F10500 X86.090 Y94.575
G1 F1380 X119.241 Y61.424 E244.99983
G0 F10500 X118.534 Y61.424
G1 F1380 X85.383 Y94.575 E245.91846
G0 F10500 X84.676 Y94.575
G1 F1380 X117.827 Y61.424 E246.83709
G0 F10500 X117.120 Y61.424
G1 F1380 X83.968 Y94.575 E247.75574
G0 F10500 X83.261 Y94.575
G1 F1380 X116.413 Y61.424 E248.67439
G0 F10500 X115.706 Y61.424
G1 F1380 X82.554 Y94.575 E249.59303
G0 F10500 X81.847 Y94.575
G1 F1380 X114.998 Y61.424 E250.51166
G0 F10500 X114.291 Y61.424
G1 F1380 X81.140 Y94.575 E251.43030
G0 F10500 X80.433 Y94.575
G1 F1380 X113.584 Y61.424 E252.34893
G0 F10500 X112.877 Y61.424
G1 F1380 X79.726 Y94.575 E253.26756
G0 F10500 X79.019 Y94.575
G1 F1380 X112.170 Y61.424 E254.18620
G0 F10500 X111.463 Y61.424
G1 F1380 X78.312 Y94.575 E255.10483
G0 F10500 X77.604 Y94.575
G1 F1380 X110.756 Y61.424 E256.02348
G0 F10500 X110.049 Y61.424
G1 F1380 X76.897 Y94.575 E256.94212
G0 F10500 X76.190 Y94.575
G1 F1380 X109.342 Y61.424 E257.86077
G0 F10500 X108.634 Y61.424
G1 F1380 X75.483 Y94.575 E258.77940
G0 F10500 X74.776 Y94.575
G1 F1380 X107.927 Y61.424 E259.69804
G0 F10500 X107.220 Y61.424
G1 F1380 X74.069 Y94.575 E260.61667
G0 F10500 X73.362 Y94.575
G1 F1380 X106.513 Y61.424 E261.53530
G0 F10500 X105.806 Y61.424
G1 F1380 X72.655 Y94.575 E262.45394
G0 F10500 X71.948 Y94.575
G1 F1380 X105.099 Y61.424 E263.37257
G0 F10500 X104.392 Y61.424
G1 F1380 X71.241 Y94.575 E264.29120
G0 F10500 X70.533 Y94.575
G1 F1380 X103.685 Y61.424 E265.20985
G0 F10500 X102.978 Y61.424
G1 F1380 X69.826 Y94.575 E266.12850
G0 F10500 X69.119 Y94.575
G1 F1380 X102.270 Y61.424 E267.04713
G0 F10500 X101.563 Y61.424
G1 F1380 X68.412 Y94.575 E267.96576
G0 F10500 X67.705 Y94.575
G1 F1380 X100.856 Y61.424 E268.88439
G0 F10500 X100.149 Y61.424
G1 F1380 X66.998 Y94.575 E269.80303
G0 F10500 X66.291 Y94.575
G1 F1380 X99.442 Y61.424 E270.72166
G0 F10500 X98.735 Y61.424
G1 F1380 X65.584 Y94.575 E271.64029
G0 F10500 X64.877 Y94.575
G1 F1380 X98.028 Y61.424 E272.55893
G0 F10500 X97.321 Y61.424
G1 F1380 X64.169 Y94.575 E273.47757
G0 F10500 X63.462 Y94.575
G1 F1380 X96.614 Y61.424 E274.39622
G0 F10500 X95.907 Y61.424
G1 F1380 X62.755 Y94.575 E275.31487
G0 F10500 X62.048 Y94.575
G1 F1380 X95.199 Y61.424 E276.23350
G0 F10500 X94.492 Y61.424
G1 F1380 X61.341 Y94.575 E277.15213
G0 F10500 X60.634 Y94.575
G1 F1380 X93.785 Y61.424 E278.07077
G0 F10500 X93.078 Y61.424
G1 F1380 X59.927 Y94.575 E278.98940
G0 F10500 X59.220 Y94.575
G1 F1380 X92.371 Y61.424 E279.90803
G0 F10500 X91.664 Y61.424
G1 F1380 X58.513 Y94.575 E280.82666
G0 F10500 X57.805 Y94.575
G1 F1380 X90.957 Y61.424 E281.74531
G0 F10500 X90.250 Y61.424
G1 F1380 X57.098 Y94.575 E282.66396
G0 F10500 X56.391 Y94.575
G1 F1380 X89.543 Y61.424 E283.58261
G0 F10500 X88.835 Y61.424
G1 F1380 X55.684 Y94.575 E284.50124
G0 F10500 X54.977 Y94.575
G1 F1380 X88.128 Y61.424 E285.41987
G0 F10500 X87.421 Y61.424
G1 F1380 X54.270 Y94.575 E286.33850
G0 F10500 X53.563 Y94.575
G1 F1380 X86.714 Y61.424 E287.25714
G0 F10500 X86.007 Y61.424
G1 F1380 X52.856 Y94.575 E288.17577
G0 F10500 X52.149 Y94.575
G1 F1380 X85.300 Y61.424 E289.09440
G0 F10500 X84.593 Y61.424
G1 F1380 X51.442 Y94.575 E290.01304
G0 F10500 X50.734 Y94.575
G1 F1380 X83.886 Y61.424 E290.93168
G0 F10500 X83.179 Y61.424
G1 F1380 X50.027 Y94.575 E291.85033
G0 F10500 X49.320 Y94.575
G1 F1380 X82.471 Y61.424 E292.76896
G0 F10500 X81.764 Y61.424
G1 F1380 X48.613 Y94.575 E293.68760
G0 F10500 X47.906 Y94.575
G1 F1380 X81.057 Y61.424 E294.60623
G0 F10500 X80.350 Y61.424
G1 F1380 X47.199 Y94.575 E295.52486
G0 F10500 X46.492 Y94.575
G1 F1380 X79.643 Y61.424 E296.44350
G0 F10500 X78.936 Y61.424
G1 F1380 X45.785 Y94.575 E297.36213
G0 F10500 X45.078 Y94.575
G1 F1380 X78.229 Y61.424 E298.28076
G0 F10500 X77.522 Y61.424
G1 F1380 X44.370 Y94.575 E299.19941
G0 F10500 X43.663 Y94.575
G1 F1380 X76.815 Y61.424 E300.11805
G0 F10500 X76.108 Y61.424
G1 F1380 X42.956 Y94.575 E301.03670
G0 F10500 X42.249 Y94.575
G1 F1380 X75.400 Y61.424 E301.95533
G0 F10500 X74.693 Y61.424
G1 F1380 X41.542 Y94.575 E302.87397
G0 F10500 X40.835 Y94.575
G1 F1380 X73.986 Y61.424 E303.79260
G0 F10500 X73.279 Y61.424
G1 F1380 X40.128 Y94.575 E304.71123
G0 F10500 X39.421 Y94.575
G1 F1380 X72.572 Y61.424 E305.62987
G0 F10500 X71.865 Y61.424
G1 F1380 X38.714 Y94.575 E306.54850
G0 F10500 X38.424 Y94.157
G1 F1380 X71.158 Y61.424 E307.45556
G0 F10500 X70.451 Y61.424
G1 F1380 X38.424 Y93.450 E308.34304
G0 F10500 X38.424 Y92.743
G1 F1380 X69.744 Y61.424 E309.21092
G0 F10500 X69.036 Y61.424
G1 F1380 X38.424 Y92.036 E310.05919
G0 F10500 X38.424 Y91.329
G1 F1380 X68.329 Y61.424 E310.88788
G0 F10500 X67.622 Y61.424
G1 F1380 X38.424 Y90.622 E311.69697
G0 F10500 X38.424 Y89.914
G1 F1380 X66.915 Y61.424 E312.48646
G0 F10500 X66.208 Y61.424
G1 F1380 X38.424 Y89.207 E313.25636
G0 F10500 X38.424 Y88.500
G1 F1380 X65.501 Y61.424 E314.00666
G0 F10500 X64.794 Y61.424
G1 F1380 X38.424 Y87.793 E314.73737
G0 F10500 X38.424 Y87.086
G1 F1380 X64.087 Y61.424 E315.44850
G0 F10500 X63.380 Y61.424
G1 F1380 X38.424 Y86.379 E316.14003
G0 F10500 X38.424 Y85.672
G1 F1380 X62.672 Y61.424 E316.81195
G0 F10500 X61.965 Y61.424
G1 F1380 X38.424 Y84.965 E317.46429
G0 F10500 X38.424 Y84.258
G1 F1380 X61.258 Y61.424 E318.09703
G0 F10500 X60.551 Y61.424
G1 F1380 X38.424 Y83.551 E318.71018
G0 F10500 X38.424 Y82.843
G1 F1380 X59.844 Y61.424 E319.30373
G0 F10500 X59.137 Y61.424
G1 F1380 X38.424 Y82.136 E319.87768
G0 F10500 X38.424 Y81.429
G1 F1380 X58.430 Y61.424 E320.43205
G0 F10500 X57.723 Y61.424
G1 F1380 X38.424 Y80.722 E320.96682
G0 F10500 X38.424 Y80.015
G1 F1380 X57.016 Y61.424 E321.48200
G0 F10500 X56.309 Y61.424
G1 F1380 X38.424 Y79.308 E321.97759
G0 F10500 X38.424 Y78.601
G1 F1380 X55.601 Y61.424 E322.45358
G0 F10500 X54.894 Y61.424
G1 F1380 X38.424 Y77.894 E322.90997
G0 F10500 X38.424 Y77.187
G1 F1380 X54.187 Y61.424 E323.34677
G0 F10500 X53.480 Y61.424
G1 F1380 X38.424 Y76.479 E323.76397
G0 F10500 X38.424 Y75.772
G1 F1380 X52.773 Y61.424 E324.16157
G0 F10500 X52.066 Y61.424
G1 F1380 X38.424 Y75.065 E324.53959
G0 F10500 X38.424 Y74.358
G1 F1380 X51.359 Y61.424 E324.89801
G0 F10500 X50.652 Y61.424
G1 F1380 X38.424 Y73.651 E325.23684
G0 F10500 X38.424 Y72.944
G1 F1380 X49.945 Y61.424 E325.55608
G0 F10500 X49.237 Y61.424
G1 F1380 X38.424 Y72.237 E325.85571
G0 F10500 X38.424 Y71.530
G1 F1380 X48.530 Y61.424 E326.13576
G0 F10500 X47.823 Y61.424
G1 F1380 X38.424 Y70.823 E326.39621
G0 F10500 X38.424 Y70.116
G1 F1380 X47.116 Y61.424 E326.63707
G0 F10500 X46.409 Y61.424
G1 F1380 X38.424 Y69.408 E326.85832
G0 F10500 X38.424 Y68.701
G1 F1380 X45.702 Y61.424 E327.05999
G0 F10500 X44.995 Y61.424
G1 F1380 X38.424 Y67.994 E327.24206
G0 F10500 X38.424 Y67.287
G1 F1380 X44.288 Y61.424 E327.40454
G0 F10500 X43.581 Y61.424
G1 F1380 X38.424 Y66.580 E327.54743
G0 F10500 X38.424 Y65.873
G1 F1380 X42.874 Y61.424 E327.67073
G0 F10500 X42.166 Y61.424
G1 F1380 X38.424 Y65.166 E327.77442
G0 F10500 X38.424 Y64.459
G1 F1380 X41.459 Y61.424 E327.85852
G0 F10500 X40.752 Y61.424
G1 F1380 X38.424 Y63.752 E327.92303
G0 F10500 X38.424 Y63.044
G1 F1380 X40.045 Y61.424 E327.96794
G0 F10500 X39.338 Y61.424
G1 F1380 X38.424 Y62.337 E327.99325
G0 F10500 X38.424 Y61.630
G1 F1380 X38.631 Y61.424 E327.99897
;LAYER:2
G0 F10500 X38.250 Y61.250 Z0.925
;TYPE:WALL-INNER
G1 F1440 X121.750 Y61.250 E329.63510
G1 X121.750 Y94.750 E330.29151
G1 X38.250 Y94.750 E331.92764
G1 X38.250 Y61.250 E332.58405
G0 F10500 X37.750 Y60.750
;TYPE:WALL-OUTER
G1 F1320 X122.250 Y60.750 E334.23977
G1 X122.250 Y95.250 E334.91577
G1 X37.750 Y95.250 E336.57149
G1 X37.750 Y60.750 E337.24750
G0 F10500 X38.443 Y61.424
;TYPE:SKIN
G1 F1920 X71.593 Y94.574 E338.16610
G0 F10500 X70.886 Y94.574
G1 F1920 X38.424 Y62.112 E339.06564
G0 F10500 X38.424 Y62.820
G1 F1920 X70.179 Y94.574 E339.94558
G0 F10500 X69.472 Y94.574
G1 F1920 X38.424 Y63.527 E340.80592
G0 F10500 X38.424 Y64.234
G1 F1920 X68.765 Y94.574 E341.64667
G0 F10500 X68.058 Y94.574
G1 F1920 X38.424 Y64.941 E342.46783
G0 F10500 X38.424 Y65.648
G1 F1920 X67.351 Y94.574 E343.26940
G0 F10500 X66.644 Y94.574
G1 F1920 X38.424 Y66.355 E344.05138
G0 F10500 X38.424 Y67.062
G1 F1920 X65.937 Y94.574 E344.81377
G0 F10500 X65.229 Y94.574
G1 F1920 X38.424 Y67.769 E345.55655
G0 F10500 X38.424 Y68.476
G1 F1920 X64.522 Y94.574 E346.27974
G0 F10500 X63.815 Y94.574
G1 F1920 X38.424 Y69.184 E346.98333
G0 F10500 X38.424 Y69.891
G1 F1920 X63.108 Y94.574 E347.66732
G0 F10500 X62.401 Y94.574
G1 F1920 X38.424 Y70.598 E348.33172
G0 F10500 X38.424 Y71.305
G1 F1920 X61.694 Y94.574 E348.97653
G0 F10500 X60.987 Y94.574
G1 F1920 X38.424 Y72.012 E349.60175
G0 F10500 X38.424 Y72.719
G1 F1920 X60.280 Y94.574 E350.20738
G0 F10500 X72.300 Y94.574
G1 F1920 X39.151 Y61.424 E351.12597
G0 F10500 X39.858 Y61.424
G1 F1920 X73.008 Y94.574 E352.04458
G0 F10500 X73.715 Y94.574
G1 F1920 X40.565 Y61.424 E352.96318
G0 F10500 X41.272 Y61.424
G1 F1920 X74.422 Y94.574 E353.88179
G0 F10500 X75.129 Y94.574
G1 F1920 X41.979 Y61.424 E354.80039
G0 F10500 X42.686 Y61.424
G1 F1920 X75.836 Y94.574 E355.71900
G0 F10500 X76.543 Y94.574
G1 F1920 X43.393 Y61.424 E356.63760
G0 F10500 X44.100 Y61.424
G1 F1920 X77.250 Y94.574 E357.55621
G0 F10500 X77.957 Y94.574
G1 F1920 X44.807 Y61.424 E358.47482
G0 F10500 X45.515 Y61.424
G1 F1920 X78.664 Y94.574 E359.39341
G0 F10500 X79.372 Y94.574
G1 F1920 X46.222 Y61.424 E360.31201
G0 F10500 X46.929 Y61.424
G1 F1920 X80.079 Y94.574 E361.23062
G0 F10500 X80.786 Y94.574
G1 F1920 X47.636 Y61.424 E362.14922
G0 F10500 X48.343 Y61.424
G1 F1920 X81.493 Y94.574 E363.06783
G0 F10500 X82.200 Y94.574
G1 F1920 X49.050 Y61.424 E363.98643
G0 F10500 X49.757 Y61.424
G1 F1920 X82.907 Y94.574 E364.90504
G0 F10500 X83.614 Y94.574
G1 F1920 X50.464 Y61.424 E365.82364
G0 F10500 X51.171 Y61.424
G1 F1920 X84.321 Y94.574 E366.74225
G0 F10500 X85.028 Y94.574
G1 F1920 X51.879 Y61.424 E367.66084
G0 F10500 X52.586 Y61.424
G1 F1920 X85.735 Y94.574 E368.57943
G0 F10500 X86.443 Y94.574
G1 F1920 X53.293 Y61.424 E369.49804
G0 F10500 X54.000 Y61.424
G1 F1920 X87.150 Y94.574 E370.41664
G0 F10500 X87.857 Y94.574
G1 F1920 X54.707 Y61.424 E371.33525
G0 F10500 X55.414 Y61.424
G1 F1920 X88.564 Y94.574 E372.25385
G0 F10500 X89.271 Y94.574
G1 F1920 X56.121 Y61.424 E373.17246
G0 F10500 X56.828 Y61.424
G1 F1920 X89.978 Y94.574 E374.09106
G0 F10500 X90.685 Y94.574
G1 F1920 X57.535 Y61.424 E375.00967
G0 F10500 X58.242 Y61.424
G1 F1920 X91.392 Y94.574 E375.92827
G0 F10500 X92.099 Y94.574
G1 F1920 X58.950 Y61.424 E376.84687
G0 F10500 X59.657 Y61.424
G1 F1920 X92.807 Y94.574 E377.76547
G0 F10500 X93.514 Y94.574
G1 F1920 X60.364 Y61.424 E378.68408
G0 F10500 X61.071 Y61.424
G1 F1920 X94.221 Y94.574 E379.60268
G0 F10500 X94.928 Y94.574
G1 F1920 X61.778 Y61.424 E380.52129
G0 F10500 X62.485 Y61.424
G1 F1920 X95.635 Y94.574 E381.43989
G0 F10500 X96.342 Y94.574
G1 F1920 X63.192 Y61.424 E382.35850
G0 F10500 X63.899 Y61.424
G1 F1920 X97.049 Y94.574 E383.27710
G0 F10500 X97.756 Y94.574
G1 F1920 X64.606 Y61.424 E384.19571
G0 F10500 X65.314 Y61.424
G1 F1920 X98.463 Y94.574 E385.11430
G0 F10500 X99.171 Y94.574
G1 F1920 X66.021 Y61.424 E386.03290
G0 F10500 X66.728 Y61.424
G1 F1920 X99.878 Y94.574 E386.95151
G0 F10500 X100.585 Y94.574
G1 F1920 X67.435 Y61.424 E387.87012
G0 F10500 X68.142 Y61.424
G1 F1920 X101.292 Y94.574 E388.78872
G0 F10500 X101.999 Y94.574
G1 F1920 X68.849 Y61.424 E389.70733
G0 F10500 X69.556 Y61.424
G1 F1920 X102.706 Y94.574 E390.62593
G0 F10500 X103.413 Y94.574
G1 F1920 X70.263 Y61.424 E391.54454
G0 F10500 X70.970 Y61.424
G1 F1920 X104.120 Y94.574 E392.46314
G0 F10500 X104.827 Y94.574
G1 F1920 X71.678 Y61.424 E393.38173
G0 F10500 X72.385 Y61.424
G1 F1920 X105.534 Y94.574 E394.30032
G0 F10500 X106.242 Y94.574
G1 F1920 X73.092 Y61.424 E395.21893
G0 F10500 X73.799 Y61.424
G1 F1920 X106.949 Y94.574 E396.13754
G0 F10500 X107.656 Y94.574
G1 F1920 X74.506 Y61.424 E397.05614
G0 F10500 X75.213 Y61.424
G1 F1920 X108.363 Y94.574 E397.97475
G0 F10500 X109.070 Y94.574
G1 F1920 X75.920 Y61.424 E398.89335
G0 F10500 X76.627 Y61.424
G1 F1920 X109.777 Y94.574 E399.81196
G0 F10500 X110.484 Y94.574
G1 F1920 X77.334 Y61.424 E400.73056
G0 F10500 X78.041 Y61.424
G1 F1920 X111.191 Y94.574 E401.64917
G0 F10500 X111.898 Y94.574
G1 F1920 X78.749 Y61.424 E402.56776
G0 F10500 X79.456 Y61.424
G1 F1920 X112.606 Y94.574 E403.48636
G0 F10500 X113.313 Y94.574
G1 F1920 X80.163 Y61.424 E404.40497
G0 F10500 X80.870 Y61.424
G1 F1920 X114.020 Y94.574 E405.32357
G0 F10500 X114.727 Y94.574
G1 F1920 X81.577 Y61.424 E406.24218
G0 F10500 X82.284 Y61.424
G1 F1920 X115.434 Y94.574 E407.16079
G0 F10500 X116.141 Y94.574
G1 F1920 X82.991 Y61.424 E408.07939
G0 F10500 X83.698 Y61.424
G1 F1920 X116.848 Y94.574 E408.99800
G0 F10500 X117.555 Y94.574
G1 F1920 X84.405 Y61.424 E409.91660
G0 F10500 X85.113 Y61.424
G1 F1920 X118.262 Y94.574 E410.83519
G0 F10500 X118.970 Y94.574
G1 F1920 X85.820 Y61.424 E411.75380
G0 F10500 X86.527 Y61.424
G1 F1920 X119.677 Y94.574 E412.67240
G0 F10500 X120.384 Y94.574
G1 F1920 X87.234 Y61.424 E413.59101
G0 F10500 X87.941 Y61.424
G1 F1920 X121.091 Y94.574 E414.50961
G0 F10500 X121.574 Y94.350
G1 F1920 X88.648 Y61.424 E415.42201
G0 F10500 X89.355 Y61.424
G1 F1920 X121.574 Y93.643 E416.31482
G0 F10500 X121.574 Y92.936
G1 F1920 X90.062 Y61.424 E417.18803
G0 F10500 X90.769 Y61.424
G1 F1920 X121.574 Y92.229 E418.04166
G0 F10500 X121.574 Y91.522
G1 F1920 X91.476 Y61.424 E418.87569
G0 F10500 X92.184 Y61.424
G1 F1920 X121.574 Y90.815 E419.69012
G0 F10500 X121.574 Y90.108
G1 F1920 X92.891 Y61.424 E420.48495
G0 F10500 X93.598 Y61.424
G1 F1920 X121.574 Y89.400 E421.26018
G0 F10500 X121.574 Y88.693
G1 F1920 X94.305 Y61.424 E422.01582
G0 F10500 X95.012 Y61.424
G1 F1920 X121.574 Y87.986 E422.75187
G0 F10500 X121.574 Y87.279
G1 F1920 X95.719 Y61.424 E423.46833
G0 F10500 X96.426 Y61.424
G1 F1920 X121.574 Y86.572 E424.16519
G0 F10500 X121.574 Y85.865
G1 F1920 X97.133 Y61.424 E424.84247
G0 F10500 X97.840 Y61.424
G1 F1920 X121.574 Y85.158 E425.50015
G0 F10500 X121.574 Y84.451
G1 F1920 X98.548 Y61.424 E426.13823
G0 F10500 X99.255 Y61.424
G1 F1920 X121.574 Y83.744 E426.75671
G0 F10500 X121.574 Y83.036
G1 F1920 X99.962 Y61.424 E427.35559
G0 F10500 X100.669 Y61.424
G1 F1920 X121.574 Y82.329 E427.93488
G0 F10500 X121.574 Y81.622
G1 F1920 X101.376 Y61.424 E428.49458
G0 F10500 X102.083 Y61.424
G1 F1920 X121.574 Y80.915 E429.03469
G0 F10500 X121.574 Y80.208
G1 F1920 X102.790 Y61.424 E429.55520
G0 F10500 X103.497 Y61.424
G1 F1920 X121.574 Y79.501 E430.05613
G0 F10500 X121.574 Y78.794
G1 F1920 X104.204 Y61.424 E430.53746
G0 F10500 X104.912 Y61.424
G1 F1920 X121.574 Y78.087 E430.99919
G0 F10500 X121.574 Y77.380
G1 F1920 X105.619 Y61.424 E431.44132
G0 F10500 X106.326 Y61.424
G1 F1920 X121.574 Y76.673 E431.86387
G0 F10500 X121.574 Y75.965
G1 F1920 X107.033 Y61.424 E432.26681
G0 F10500 X107.740 Y61.424
G1 F1920 X121.574 Y75.258 E432.65016
G0 F10500 X121.574 Y74.551
G1 F1920 X108.447 Y61.424 E433.01391
G0 F10500 X109.154 Y61.424
G1 F1920 X121.574 Y73.844 E433.35808
G0 F10500 X121.574 Y73.137
G1 F1920 X109.861 Y61.424 E433.68265
G0 F10500 X110.568 Y61.424
G1 F1920 X121.574 Y72.430 E433.98763
G0 F10500 X121.574 Y71.723
G1 F1920 X111.275 Y61.424 E434.27303
G0 F10500 X111.983 Y61.424
G1 F1920 X121.574 Y71.016 E434.53881
G0 F10500 X121.574 Y70.309
G1 F1920 X112.690 Y61.424 E434.78501
G0 F10500 X113.397 Y61.424
G1 F1920 X121.574 Y69.601 E435.01160
G0 F10500 X121.574 Y68.894
G1 F1920 X114.104 Y61.424 E435.21859
G0 F10500 X114.811 Y61.424
G1 F1920 X121.574 Y68.187 E435.40600
G0 F10500 X121.574 Y67.480
G1 F1920 X115.518 Y61.424 E435.57381
G0 F10500 X116.225 Y61.424
G1 F1920 X121.574 Y66.773 E435.72204
G0 F10500 X121.574 Y66.066
G1 F1920 X116.932 Y61.424 E435.85067
G0 F10500 X117.639 Y61.424
G1 F1920 X121.574 Y65.359 E435.95971
G0 F10500 X121.574 Y64.652
G1 F1920 X118.347 Y61.424 E436.04915
G0 F10500 X119.054 Y61.424
G1 F1920 X121.574 Y63.945 E436.11899
G0 F10500 X121.574 Y63.237
G1 F1920 X119.761 Y61.424 E436.16923
G0 F10500 X120.468 Y61.424
G1 F1920 X121.574 Y62.530 E436.19988
G0 F10500 X121.574 Y61.823
G1 F1920 X121.175 Y61.424 E436.21094
G0 F10500 X59.573 Y94.574
G1 F1920 X38.424 Y73.426 E436.79697
G0 F10500 X38.424 Y74.133
G1 F1920 X58.865 Y94.574 E437.36340
G0 F10500 X58.158 Y94.574
G1 F1920 X38.424 Y74.840 E437.91025
G0 F10500 X38.424 Y75.547
G1 F1920 X57.451 Y94.574 E438.43749
G0 F10500 X56.744 Y94.574
G1 F1920 X38.424 Y76.255 E438.94514
G0 F10500 X38.424 Y76.962
G1 F1920 X56.037 Y94.574 E439.43319
G0 F10500 X55.330 Y94.574
G1 F1920 X38.424 Y77.669 E439.90165
G0 F10500 X38.424 Y78.376
G1 F1920 X54.623 Y94.574 E440.35052
G0 F10500 X53.916 Y94.574
G1 F1920 X38.424 Y79.083 E440.77980
G0 F10500 X38.424 Y79.790
G1 F1920 X53.209 Y94.574 E441.18949
G0 F10500 X52.501 Y94.574
G1 F1920 X38.424 Y80.497 E441.57957
G0 F10500 X38.424 Y81.204
G1 F1920 X51.794 Y94.574 E441.95006
G0 F10500 X51.087 Y94.574
G1 F1920 X38.424 Y81.911 E442.30096
G0 F10500 X38.424 Y82.619
G1 F1920 X50.380 Y94.574 E442.63225
G0 F10500 X49.673 Y94.574
G1 F1920 X38.424 Y83.326 E442.94395
G0 F10500 X38.424 Y84.033
G1 F1920 X48.966 Y94.574 E443.23606
G0 F10500 X48.259 Y94.574
G1 F1920 X38.424 Y84.740 E443.50858
G0 F10500 X38.424 Y85.447
G1 F1920 X47.552 Y94.574 E443.76151
G0 F10500 X46.845 Y94.574
G1 F1920 X38.424 Y86.154 E443.99485
G0 F10500 X38.424 Y86.861
G1 F1920 X46.138 Y94.574 E444.20859
G0 F10500 X45.430 Y94.574
G1 F1920 X38.424 Y87.568 E444.40273
G0 F10500 X38.424 Y88.275
G1 F1920 X44.723 Y94.574 E444.57728
G0 F10500 X44.016 Y94.574
G1 F1920 X38.424 Y88.983 E444.73223
G0 F10500 X38.424 Y89.690
G1 F1920 X43.309 Y94.574 E444.86758
G0 F10500 X42.602 Y94.574
G1 F1920 X38.424 Y90.397 E444.98334
G0 F10500 X38.424 Y91.104
G1 F1920 X41.895 Y94.574 E445.07951
G0 F10500 X41.188 Y94.574
G1 F1920 X38.424 Y91.811 E445.15609
G0 F10500 X38.424 Y92.518
G1 F1920 X40.481 Y94.574 E445.21307
G0 F10500 X39.774 Y94.574
G1 F1920 X38.424 Y93.225 E445.25047
G0 F10500 X38.424 Y93.932
G1 F1920 X39.066 Y94.574 E445.26826
;LAYER:3
G0 F10500 X38.250 Y94.750 Z1.175
;TYPE:WALL-INNER
G1 F1740 X38.250 Y61.250 E445.92467
G1 X121.750 Y61.250 E447.56080
G1 X121.750 Y94.750 E448.21721
G1 X38.250 Y94.750 E449.85333
G0 F10500 X37.750 Y95.250
;TYPE:WALL-OUTER
G1 F1500 X37.750 Y60.750 E450.52934
G1 X122.250 Y60.750 E452.18506
G1 X122.250 Y95.250 E452.86106
G1 X37.750 Y95.250 E454.51678
G0 F10500 X38.714 Y94.575
;TYPE:SKIN
G1 F2400 X71.865 Y61.424 E455.43542
G0 F10500 X72.572 Y61.424
G1 F2400 X39.421 Y94.575 E456.35405
G0 F10500 X38.424 Y94.157
G1 F2400 X71.158 Y61.424 E457.26111
G0 F10500 X70.451 Y61.424
G1 F2400 X38.424 Y93.450 E458.14859
G0 F10500 X38.424 Y92.743
G1 F2400 X69.744 Y61.424 E459.01647
G0 F10500 X69.036 Y61.424
G1 F2400 X38.424 Y92.036 E459.86474
G0 F10500 X38.424 Y91.329
G1 F2400 X68.329 Y61.424 E460.69343
G0 F10500 X67.622 Y61.424
G1 F2400 X38.424 Y90.622 E461.50252
G0 F10500 X38.424 Y89.914
G1 F2400 X66.915 Y61.424 E462.29201
G0 F10500 X66.208 Y61.424
G1 F2400 X38.424 Y89.207 E463.06190
G0 F10500 X38.424 Y88.500
G1 F2400 X65.501 Y61.424 E463.81221
G0 F10500 X64.794 Y61.424
G1 F2400 X38.424 Y87.793 E464.54292
G0 F10500 X38.424 Y87.086
G1 F2400 X64.087 Y61.424 E465.25405
G0 F10500 X63.380 Y61.424
G1 F2400 X38.424 Y86.379 E465.94558
G0 F10500 X38.424 Y85.672
G1 F2400 X62.672 Y61.424 E466.61750
G0 F10500 X61.965 Y61.424
G1 F2400 X38.424 Y84.965 E467.26984
G0 F10500 X38.424 Y84.258
G1 F2400 X61.258 Y61.424 E467.90258
G0 F10500 X60.551 Y61.424
G1 F2400 X38.424 Y83.551 E468.51573
G0 F10500 X38.424 Y82.843
G1 F2400 X59.844 Y61.424 E469.10928
G0 F10500 X59.137 Y61.424
G1 F2400 X38.424 Y82.136 E469.68323
G0 F10500 X38.424 Y81.429
G1 F2400 X58.430 Y61.424 E470.23760
G0 F10500 X57.723 Y61.424
G1 F2400 X38.424 Y80.722 E470.77237
G0 F10500 X38.424 Y80.015
G1 F2400 X57.016 Y61.424 E471.28755
G0 F10500 X56.309 Y61.424
G1 F2400 X38.424 Y79.308 E471.78314
G0 F10500 X38.424 Y78.601
G1 F2400 X55.601 Y61.424 E472.25912
G0 F10500 X54.894 Y61.424
G1 F2400 X38.424 Y77.894 E472.71552
G0 F10500 X38.424 Y77.187
G1 F2400 X54.187 Y61.424 E473.15232
G0 F10500 X53.480 Y61.424
G1 F2400 X38.424 Y76.479 E473.56952
G0 F10500 X38.424 Y75.772
G1 F2400 X52.773 Y61.424 E473.96712
G0 F10500 X52.066 Y61.424
G1 F2400 X38.424 Y75.065 E474.34513
G0 F10500 X38.424 Y74.358
G1 F2400 X51.359 Y61.424 E474.70356
G0 F10500 X50.652 Y61.424
G1 F2400 X38.424 Y73.651 E475.04239
G0 F10500 X38.424 Y72.944
G1 F2400 X49.945 Y61.424 E475.36163
G0 F10500 X49.237 Y61.424
G1 F2400 X38.424 Y72.237 E475.66126
G0 F10500 X38.424 Y71.530
G1 F2400 X48.530 Y61.424 E475.94130
G0 F10500 X47.823 Y61.424
G1 F2400 X38.424 Y70.823 E476.20176
G0 F10500 X38.424 Y70.116
G1 F2400 X47.116 Y61.424 E476.44262
G0 F10500 X46.409 Y61.424
G1 F2400 X38.424 Y69.408 E476.66387
G0 F10500 X38.424 Y68.701
G1 F2400 X45.702 Y61.424 E476.86554
G0 F10500 X44.995 Y61.424
G1 F2400 X38.424 Y67.994 E477.04761
G0 F10500 X38.424 Y67.287
G1 F2400 X44.288 Y61.424 E477.21009
G0 F10500 X43.581 Y61.424
G1 F2400 X38.424 Y66.580 E477.35298
G0 F10500 X38.424 Y65.873
G1 F2400 X42.874 Y61.424 E477.47628
G0 F10500 X42.166 Y61.424
G1 F2400 X38.424 Y65.166 E477.57997
G0 F10500 X38.424 Y64.459
G1 F2400 X41.459 Y61.424 E477.66407
G0 F10500 X40.752 Y61.424
G1 F2400 X38.424 Y63.752 E477.72858
G0 F10500 X38.424 Y63.044
G1 F2400 X40.045 Y61.424 E477.77349
G0 F10500 X39.338 Y61.424
G1 F2400 X38.424 Y62.337 E477.79880
G0 F10500 X38.424 Y61.630
G1 F2400 X38.631 Y61.424 E477.80452
G0 F10500 X40.128 Y94.575
G1 F2400 X73.279 Y61.424 E478.72315
G0 F10500 X73.986 Y61.424
G1 F2400 X40.835 Y94.575 E479.64179
G0 F10500 X41.542 Y94.575
G1 F2400 X74.693 Y61.424 E480.56042
G0 F10500 X75.400 Y61.424
G1 F2400 X42.249 Y94.575 E481.47905
G0 F10500 X42.956 Y94.575
G1 F2400 X76.108 Y61.424 E482.39770
G0 F10500 X76.815 Y61.424
G1 F2400 X43.663 Y94.575 E483.31635
G0 F10500 X44.370 Y94.575
G1 F2400 X77.522 Y61.424 E484.23499
G0 F10500 X78.229 Y61.424
G1 F2400 X45.078 Y94.575 E485.15363
G0 F10500 X45.785 Y94.575
G1 F2400 X78.936 Y61.424 E486.07226
G0 F10500 X79.643 Y61.424
G1 F2400 X46.492 Y94.575 E486.99089
G0 F10500 X47.199 Y94.575
G1 F2400 X80.350 Y61.424 E487.90953
G0 F10500 X81.057 Y61.424
G1 F2400 X47.906 Y94.575 E488.82816
G0 F10500 X48.613 Y94.575
G1 F2400 X81.764 Y61.424 E489.74679
G0 F10500 X82.471 Y61.424
G1 F2400 X49.320 Y94.575 E490.66543
G0 F10500 X50.027 Y94.575
G1 F2400 X83.179 Y61.424 E491.58407
G0 F10500 X83.886 Y61.424
G1 F2400 X50.734 Y94.575 E492.50272
G0 F10500 X51.442 Y94.575
G1 F2400 X84.593 Y61.424 E493.42135
G0 F10500 X85.300 Y61.424
G1 F2400 X52.149 Y94.575 E494.33999
G0 F10500 X52.856 Y94.575
G1 F2400 X86.007 Y61.424 E495.25862
G0 F10500 X86.714 Y61.424
G1 F2400 X53.563 Y94.575 E496.17725
G0 F10500 X54.270 Y94.575
G1 F2400 X87.421 Y61.424 E497.09588
G0 F10500 X88.128 Y61.424
G1 F2400 X54.977 Y94.575 E498.01452
G0 F10500 X55.684 Y94.575
G1 F2400 X88.835 Y61.424 E498.93315
G0 F10500 X89.543 Y61.424
G1 F2400 X56.391 Y94.575 E499.85180
G0 F10500 X57.098 Y94.575
G1 F2400 X90.250 Y61.424 E500.77044
G0 F10500 X90.957 Y61.424
G1 F2400 X57.805 Y94.575 E501.68909
G0 F10500 X58.513 Y94.575
G1 F2400 X91.664 Y61.424 E502.60772
G0 F10500 X92.371 Y61.424
G1 F2400 X59.220 Y94.575 E503.52636
G0 F10500 X59.927 Y94.575
G1 F2400 X93.078 Y61.424 E504.44499
G0 F10500 X93.785 Y61.424
G1 F2400 X60.634 Y94.575 E505.36362
G0 F10500 X61.341 Y94.575
G1 F2400 X94.492 Y61.424 E506.28226
G0 F10500 X95.199 Y61.424
G1 F2400 X62.048 Y94.575 E507.20089
G0 F10500 X62.755 Y94.575
G1 F2400 X95.907 Y61.424 E508.11954
G0 F10500 X96.614 Y61.424
G1 F2400 X63.462 Y94.575 E509.03818
G0 F10500 X64.169 Y94.575
G1 F2400 X97.321 Y61.424 E509.95683
G0 F10500 X98.028 Y61.424
G1 F2400 X64.877 Y94.575 E510.87546
G0 F10500 X65.584 Y94.575
G1 F2400 X98.735 Y61.424 E511.79410
G0 F10500 X99.442 Y61.424
G1 F2400 X66.291 Y94.575 E512.71273
G0 F10500 X66.998 Y94.575
G1 F2400 X100.149 Y61.424 E513.63136
G0 F10500 X100.856 Y61.424
G1 F2400 X67.705 Y94.575 E514.54999
G0 F10500 X68.412 Y94.575
G1 F2400 X101.563 Y61.424 E515.46863
G0 F10500 X102.270 Y61.424
G1 F2400 X69.119 Y94.575 E516.38726
G0 F10500 X69.826 Y94.575
G1 F2400 X102.978 Y61.424 E517.30591
G0 F10500 X103.685 Y61.424
G1 F2400 X70.533 Y94.575 E518.22455
G0 F10500 X71.241 Y94.575
G1 F2400 X104.392 Y61.424 E519.14319
G0 F10500 X105.099 Y61.424
G1 F2400 X71.948 Y94.575 E520.06182
G0 F10500 X72.655 Y94.575
G1 F2400 X105.806 Y61.424 E520.98045
G0 F10500 X106.513 Y61.424
G1 F2400 X73.362 Y94.575 E521.89909
G0 F10500 X74.069 Y94.575
G1 F2400 X107.220 Y61.424 E522.81772
G0 F10500 X107.927 Y61.424
G1 F2400 X74.776 Y94.575 E523.73635
G0 F10500 X75.483 Y94.575
G1 F2400 X108.634 Y61.424 E524.65499
G0 F10500 X109.342 Y61.424
G1 F2400 X76.190 Y94.575 E525.57363
G0 F10500 X76.897 Y94.575
G1 F2400 X110.049 Y61.424 E526.49228
G0 F10500 X110.756 Y61.424
G1 F2400 X77.604 Y94.575 E527.41093
G0 F10500 X78.312 Y94.575
G1 F2400 X111.463 Y61.424 E528.32956
G0 F10500 X112.170 Y61.424
G1 F2400 X79.019 Y94.575 E529.24819
G0 F10500 X79.726 Y94.575
G1 F2400 X112.877 Y61.424 E530.16682
G0 F10500 X113.584 Y61.424
G1 F2400 X80.433 Y94.575 E531.08546
G0 F10500 X81.140 Y94.575
G1 F2400 X114.291 Y61.424 E532.00409
G0 F10500 X114.998 Y61.424
G1 F2400 X81.847 Y94.575 E532.92272
G0 F10500 X82.554 Y94.575
G1 F2400 X115.706 Y61.424 E533.84137
G0 F10500 X116.413 Y61.424
G1 F2400 X83.261 Y94.575 E534.76002
G0 F10500 X83.968 Y94.575
G1 F2400 X117.120 Y61.424 E535.67866
G0 F10500 X117.827 Y61.424
G1 F2400 X84.676 Y94.575 E536.59730
G0 F10500 X85.383 Y94.575
G1 F2400 X118.534 Y61.424 E537.51593
G0 F10500 X119.241 Y61.424
G1 F2400 X86.090 Y94.575 E538.43456
G0 F10500 X86.797 Y94.575
G1 F2400 X119.948 Y61.424 E539.35320
G0 F10500 X120.655 Y61.424
G1 F2400 X87.504 Y94.575 E540.27183
G0 F10500 X88.211 Y94.575
G1 F2400 X121.362 Y61.424 E541.19046
G0 F10500 X121.574 Y61.919
G1 F2400 X88.918 Y94.575 E542.09538
G0 F10500 X89.625 Y94.575
G1 F2400 X121.574 Y62.627 E542.98069
G0 F10500 X121.574 Y63.334
G1 F2400 X90.332 Y94.575 E543.84641
G0 F10500 X91.039 Y94.575
G1 F2400 X121.574 Y64.041 E544.69254
G0 F10500 X121.574 Y64.748
G1 F2400 X91.747 Y94.575 E545.51906
G0 F10500 X92.454 Y94.575
G1 F2400 X121.574 Y65.455 E546.32599
G0 F10500 X121.574 Y66.162
G1 F2400 X93.161 Y94.575 E547.11333
G0 F10500 X93.868 Y94.575
G1 F2400 X121.574 Y66.869 E547.88108
G0 F10500 X121.574 Y67.576
G1 F2400 X94.575 Y94.575 E548.62924
G0 F10500 X95.282 Y94.575
G1 F2400 X121.574 Y68.283 E549.35781
G0 F10500 X121.574 Y68.990
G1 F2400 X95.989 Y94.575 E550.06678
G0 F10500 X96.696 Y94.575
G1 F2400 X121.574 Y69.698 E550.75615
G0 F10500 X121.574 Y70.405
G1 F2400 X97.403 Y94.575 E551.42593
G0 F10500 X98.111 Y94.575
G1 F2400 X121.574 Y71.112 E552.07610
G0 F10500 X121.574 Y71.819
G1 F2400 X98.818 Y94.575 E552.70668
G0 F10500 X99.525 Y94.575
G1 F2400 X121.574 Y72.526 E553.31767
G0 F10500 X121.574 Y73.233
G1 F2400 X100.232 Y94.575 E553.90907
G0 F10500 X100.939 Y94.575
G1 F2400 X121.574 Y73.940 E554.48088
G0 F10500 X121.574 Y74.647
G1 F2400 X101.646 Y94.575 E555.03310
G0 F10500 X102.353 Y94.575
G1 F2400 X121.574 Y75.354 E555.56572
G0 F10500 X121.574 Y76.062
G1 F2400 X103.060 Y94.575 E556.07874
G0 F10500 X103.767 Y94.575
G1 F2400 X121.574 Y76.769 E556.57217
G0 F10500 X121.574 Y77.476
G1 F2400 X104.475 Y94.575 E557.04599
G0 F10500 X105.182 Y94.575
G1 F2400 X121.574 Y78.183 E557.50022
G0 F10500 X121.574 Y78.890
G1 F2400 X105.889 Y94.575 E557.93486
G0 F10500 X106.596 Y94.575
G1 F2400 X121.574 Y79.597 E558.34991
G0 F10500 X121.574 Y80.304
G1 F2400 X107.303 Y94.575 E558.74537
G0 F10500 X108.010 Y94.575
G1 F2400 X121.574 Y81.011 E559.12124
G0 F10500 X121.574 Y81.718
G1 F2400 X108.717 Y94.575 E559.47751
G0 F10500 X109.424 Y94.575
G1 F2400 X121.574 Y82.426 E559.81418
G0 F10500 X121.574 Y83.133
G1 F2400 X110.131 Y94.575 E560.13126
G0 F10500 X110.838 Y94.575
G1 F2400 X121.574 Y83.840 E560.42874
G0 F10500 X121.574 Y84.547
G1 F2400 X111.546 Y94.575 E560.70663
G0 F10500 X112.253 Y94.575
G1 F2400 X121.574 Y85.254 E560.96492
G0 F10500 X121.574 Y85.961
G1 F2400 X112.960 Y94.575 E561.20362
G0 F10500 X113.667 Y94.575
G1 F2400 X121.574 Y86.668 E561.42272
G0 F10500 X121.574 Y87.375
G1 F2400 X114.374 Y94.575 E561.62224
G0 F10500 X115.081 Y94.575
G1 F2400 X121.574 Y88.082 E561.80216
G0 F10500 X121.574 Y88.789
G1 F2400 X115.788 Y94.575 E561.96250
G0 F10500 X116.495 Y94.575
G1 F2400 X121.574 Y89.497 E562.10323
G0 F10500 X121.574 Y90.204
G1 F2400 X117.202 Y94.575 E562.22436
G0 F10500 X117.910 Y94.575
G1 F2400 X121.574 Y90.911 E562.32589
G0 F10500 X121.574 Y91.618
G1 F2400 X118.617 Y94.575 E562.40783
G0 F10500 X119.324 Y94.575
G1 F2400 X121.574 Y92.325 E562.47018
G0 F10500 X121.574 Y93.032
G1 F2400 X120.031 Y94.575 E562.51294
G0 F10500 X120.738 Y94.575
G1 F2400 X121.574 Y93.739 E562.53611
G0 F10500 X121.574 Y94.446
G1 F2400 X121.445 Y94.575 E562.53968
;LAYER:4
G0 F10500 X121.750 Y94.750 Z1.425
;TYPE:WALL-INNER
G1 F2100 X38.250 Y94.750 E564.17581
G1 X38.250 Y61.250 E564.83222
G1 X121.750 Y61.250 E566.46834
G1 X121.750 Y94.750 E567.12475
G0 F10500 X122.250 Y95.250
;TYPE:WALL-OUTER
G1 F1800 X37.750 Y95.250 E568.78047
G1 X37.750 Y60.750 E569.45648
G1 X122.250 Y60.750 E571.11220
G1 X122.250 Y95.250 E571.78820
G0 F10500 X121.574 Y94.093
;TYPE:FILL
G1 F2400 X121.092 Y94.575 E571.80156
G0 F10500 X121.574 Y89.754
G1 F2400 X93.244 Y61.424 E572.58660
G0 F10500 X90.603 Y61.424
G1 F2400 X57.452 Y94.575 E573.50523
G0 F10500 X55.683 Y94.574
G1 F2400 X38.424 Y77.315 E573.98349
G0 F10500 X38.424 Y78.247
G1 F2400 X55.248 Y61.424 E574.44968
G0 F10500 X57.889 Y61.424
G1 F2400 X91.039 Y94.574 E575.36828
G0 F10500 X92.807 Y94.575
G1 F2400 X121.574 Y65.809 E576.16542
G0 F10500 X121.574 Y68.541
G1 F2400 X114.457 Y61.424 E576.36264
G0 F10500 X111.816 Y61.424
G1 F2400 X78.665 Y94.575 E577.28127
G0 F10500 X76.897 Y94.574
G1 F2400 X43.747 Y61.424 E578.19988
G0 F10500 X41.106 Y61.424
G1 F2400 X38.424 Y64.105 E578.27418
G0 F10500 X38.424 Y63.173
G1 F2400 X69.826 Y94.574 E579.14433
G0 F10500 X71.594 Y94.575
G1 F2400 X104.745 Y61.424 E580.06297
G0 F10500 X107.386 Y61.424
G1 F2400 X121.574 Y75.612 E580.45612
G0 F10500 X121.574 Y72.880
G1 F2400 X99.878 Y94.575 E581.05732
G0 F10500 X98.110 Y94.574
G1 F2400 X64.960 Y61.424 E581.97592
G0 F10500 X62.319 Y61.424
G1 F2400 X38.424 Y85.318 E582.63805
G0 F10500 X38.424 Y84.386
G1 F2400 X48.612 Y94.574 E582.92037
G0 F10500 X50.381 Y94.575
G1 F2400 X83.532 Y61.424 E583.83900
G0 F10500 X86.173 Y61.424
G1 F2400 X119.323 Y94.574 E584.75761
G0 F10500 X114.020 Y94.575
G1 F2400 X121.574 Y87.022 E584.96692
G0 F10500 X121.574 Y82.683
G1 F2400 X100.315 Y61.424 E585.55602
G0 F10500 X118.887 Y61.424
G1 F2400 X85.736 Y94.575 E586.47465
G0 F10500 X83.968 Y94.574
G1 F2400 X50.818 Y61.424 E587.39326
G0 F10500 X48.177 Y61.424
G1 F2400 X38.424 Y71.176 E587.66350
G0 F10500 X38.424 Y70.244
G1 F2400 X62.755 Y94.574 E588.33772
G0 F10500 X64.523 Y94.575
G1 F2400 X97.674 Y61.424 E589.25635
G0 F10500 X79.102 Y61.424
G1 F2400 X112.252 Y94.574 E590.17495
G0 F10500 X106.949 Y94.575
G1 F2400 X121.574 Y79.951 E590.58021
G0 F10500 X105.181 Y94.574
G1 F2400 X72.031 Y61.424 E591.49881
G0 F10500 X69.390 Y61.424
G1 F2400 X38.424 Y92.389 E592.35688
G0 F10500 X38.424 Y91.457
G1 F2400 X41.541 Y94.574 E592.44326
G0 F10500 X43.310 Y94.575
G1 F2400 X76.461 Y61.424 E593.36189
;LAYER:5
G0 F10500 X38.250 Y61.250 Z1.675
;TYPE:WALL-INNER
G1 F2100 X121.750 Y61.250 E594.99802
G1 X121.750 Y94.750 E595.65443
G1 X38.250 Y94.750 E597.29055
G1 X38.250 Y61.250 E597.94696
G0 F10500 X37.750 Y60.750
;TYPE:WALL-OUTER
G1 F1800 X122.250 Y60.750 E599.60269
G1 X122.250 Y95.250 E600.27869
G1 X37.750 Y95.250 E601.93441
G1 X37.750 Y60.750 E602.61042
G0 F10500 X38.100 Y61.010
G0 X38.424 Y63.173
;TYPE:FILL
G1 F2400 X69.826 Y94.574 E603.48057
G0 F10500 X71.594 Y94.575
G1 F2400 X104.745 Y61.424 E604.39920
G0 F10500 X107.386 Y61.424
G1 F2400 X121.574 Y75.612 E604.79236
G0 F10500 X121.574 Y72.880
G1 F2400 X99.878 Y94.575 E605.39355
G0 F10500 X98.110 Y94.574
G1 F2400 X64.960 Y61.424 E606.31216
G0 F10500 X62.319 Y61.424
G1 F2400 X38.424 Y85.318 E606.97429
G0 F10500 X38.424 Y84.386
G1 F2400 X48.612 Y94.574 E607.25660
G0 F10500 X50.381 Y94.575
G1 F2400 X83.532 Y61.424 E608.17524
G0 F10500 X86.173 Y61.424
G1 F2400 X119.323 Y94.574 E609.09384
G0 F10500 X114.020 Y94.575
G1 F2400 X121.574 Y87.022 E609.30315
G0 F10500 X121.574 Y89.754
G1 F2400 X93.244 Y61.424 E610.08820
G0 F10500 X90.603 Y61.424
G1 F2400 X57.452 Y94.575 E611.00683
G0 F10500 X55.683 Y94.574
G1 F2400 X38.424 Y77.315 E611.48508
G0 F10500 X38.424 Y78.247
G1 F2400 X55.248 Y61.424 E611.95127
G0 F10500 X57.889 Y61.424
G1 F2400 X91.039 Y94.574 E612.86988
G0 F10500 X92.807 Y94.575
G1 F2400 X121.574 Y65.809 E613.66701
G0 F10500 X121.574 Y68.541
G1 F2400 X114.457 Y61.424 E613.86423
G0 F10500 X111.816 Y61.424
G1 F2400 X78.665 Y94.575 E614.78286
G0 F10500 X76.897 Y94.574
G1 F2400 X43.747 Y61.424 E615.70147
G0 F10500 X41.106 Y61.424
G1 F2400 X38.424 Y64.105 E615.77578
G0 F10500 X38.424 Y70.244
G1 F2400 X62.755 Y94.574 E616.44999
G0 F10500 X64.523 Y94.575
G1 F2400 X97.674 Y61.424 E617.36862
G0 F10500 X100.315 Y61.424
G1 F2400 X121.574 Y82.683 E617.95772
G0 F10500 X121.574 Y94.093
G1 F2400 X121.092 Y94.575 E617.97108
G0 F10500 X112.252 Y94.574
G1 F2400 X79.102 Y61.424 E618.88968
G0 F10500 X76.461 Y61.424
G1 F2400 X43.310 Y94.575 E619.80831
G0 F10500 X41.541 Y94.574
G1 F2400 X38.424 Y91.457 E619.89469
G0 F10500 X38.424 Y92.389
G1 F2400 X69.390 Y61.424 E620.75276
G0 F10500 X72.031 Y61.424
G1 F2400 X105.181 Y94.574 E621.67136
G0 F10500 X106.949 Y94.575
G1 F2400 X121.574 Y79.951 E622.07662
G0 F10500 X118.887 Y61.424
G1 F2400 X85.736 Y94.575 E622.99525
G0 F10500 X83.968 Y94.574
G1 F2400 X50.818 Y61.424 E623.91386
G0 F10500 X48.177 Y61.424
G1 F2400 X38.424 Y71.176 E624.18410
;LAYER:6
G0 F10500 X38.250 Y61.250 Z1.925
;TYPE:WALL-INNER
G1 F2100 X121.750 Y61.250 E625.82023
G1 X121.750 Y94.750 E626.47664
G1 X38.250 Y94.750 E628.11277
G1 X38.250 Y61.250 E628.76918
G0 F10500 X37.750 Y60.750
;TYPE:WALL-OUTER
G1 F1800 X122.250 Y60.750 E630.42490
G1 X122.250 Y95.250 E631.10090
G1 X37.750 Y95.250 E632.75662
G1 X37.750 Y60.750 E633.43263
G0 F10500 X38.100 Y61.010
G0 X38.424 Y63.173
;TYPE:FILL
G1 F2400 X69.826 Y94.574 E634.30278
G0 F10500 X71.594 Y94.575
G1 F2400 X104.745 Y61.424 E635.22141
G0 F10500 X107.386 Y61.424
G1 F2400 X121.574 Y75.612 E635.61457
G0 F10500 X121.574 Y72.880
G1 F2400 X99.878 Y94.575 E636.21577
G0 F10500 X98.110 Y94.574
G1 F2400 X64.960 Y61.424 E637.13437
G0 F10500 X62.319 Y61.424
G1 F2400 X38.424 Y85.318 E637.79650
G0 F10500 X38.424 Y84.386
G1 F2400 X48.612 Y94.574 E638.07882
G0 F10500 X50.381 Y94.575
G1 F2400 X83.532 Y61.424 E638.99745
G0 F10500 X86.173 Y61.424
G1 F2400 X119.323 Y94.574 E639.91605
G0 F10500 X114.020 Y94.575
G1 F2400 X121.574 Y87.022 E640.12537
G0 F10500 X121.574 Y89.754
G1 F2400 X93.244 Y61.424 E640.91041
G0 F10500 X90.603 Y61.424
G1 F2400 X57.452 Y94.575 E641.82904
G0 F10500 X55.683 Y94.574
G1 F2400 X38.424 Y77.315 E642.30730
G0 F10500 X38.424 Y78.247
G1 F2400 X55.248 Y61.424 E642.77348
G0 F10500 X57.889 Y61.424
G1 F2400 X91.039 Y94.574 E643.69209
G0 F10500 X92.807 Y94.575
G1 F2400 X121.574 Y65.809 E644.48923
G0 F10500 X121.574 Y68.541
G1 F2400 X114.457 Y61.424 E644.68644
G0 F10500 X111.816 Y61.424
G1 F2400 X78.665 Y94.575 E645.60508
G0 F10500 X76.897 Y94.574
G1 F2400 X43.747 Y61.424 E646.52368
G0 F10500 X41.106 Y61.424
G1 F2400 X38.424 Y64.105 E646.59799
G0 F10500 X38.424 Y70.244
G1 F2400 X62.755 Y94.574 E647.27220
G0 F10500 X64.523 Y94.575
G1 F2400 X97.674 Y61.424 E648.19083
G0 F10500 X100.315 Y61.424
G1 F2400 X121.574 Y82.683 E648.77993
G0 F10500 X121.574 Y94.093
G1 F2400 X121.092 Y94.575 E648.79329
G0 F10500 X112.252 Y94.574
G1 F2400 X79.102 Y61.424 E649.71189
G0 F10500 X76.461 Y61.424
G1 F2400 X43.310 Y94.575 E650.63053
G0 F10500 X41.541 Y94.574
G1 F2400 X38.424 Y91.457 E650.71690
G0 F10500 X38.424 Y92.389
G1 F2400 X69.390 Y61.424 E651.57497
G0 F10500 X72.031 Y61.424
G1 F2400 X105.181 Y94.574 E652.49358
G0 F10500 X106.949 Y94.575
G1 F2400 X121.574 Y79.951 E652.89883
G0 F10500 X118.887 Y61.424
G1 F2400 X85.736 Y94.575 E653.81746
G0 F10500 X83.968 Y94.574
G1 F2400 X50.818 Y61.424 E654.73607
G0 F10500 X48.177 Y61.424
G1 F2400 X38.424 Y71.176 E655.00631
;LAYER:7
G0 F10500 X38.250 Y61.250 Z2.175
;TYPE:WALL-INNER
G1 F2100 X121.750 Y61.250 E656.64244
G1 X121.750 Y94.750 E657.29885
G1 X38.250 Y94.750 E658.93498
G1 X38.250 Y61.250 E659.59139
G0 F10500 X37.750 Y60.750
;TYPE:WALL-OUTER
G1 F1800 X122.250 Y60.750 E661.24711
G1 X122.250 Y95.250 E661.92311
G1 X37.750 Y95.250 E663.57883
G1 X37.750 Y60.750 E664.25484
G0 F10500 X38.100 Y61.010
G0 X38.424 Y63.173
;TYPE:FILL
G1 F2400 X69.826 Y94.574 E665.12499
G0 F10500 X71.594 Y94.575
G1 F2400 X104.745 Y61.424 E666.04362
G0 F10500 X107.386 Y61.424
G1 F2400 X121.574 Y75.612 E666.43678
G0 F10500 X121.574 Y72.880
G1 F2400 X99.878 Y94.575 E667.03798
G0 F10500 X98.110 Y94.574
G1 F2400 X64.960 Y61.424 E667.95658
G0 F10500 X62.319 Y61.424
G1 F2400 X38.424 Y85.318 E668.61871
G0 F10500 X38.424 Y84.386
G1 F2400 X48.612 Y94.574 E668.90103
G0 F10500 X50.381 Y94.575
G1 F2400 X83.532 Y61.424 E669.81966
G0 F10500 X86.173 Y61.424
G1 F2400 X119.323 Y94.574 E670.73827
G0 F10500 X114.020 Y94.575
G1 F2400 X121.574 Y87.022 E670.94758
G0 F10500 X121.574 Y89.754
G1 F2400 X93.244 Y61.424 E671.73262
G0 F10500 X90.603 Y61.424
G1 F2400 X57.452 Y94.575 E672.65125
G0 F10500 X55.683 Y94.574
G1 F2400 X38.424 Y77.315 E673.12951
G0 F10500 X38.424 Y78.247
G1 F2400 X55.248 Y61.424 E673.59570
G0 F10500 X57.889 Y61.424
G1 F2400 X91.039 Y94.574 E674.51430
G0 F10500 X92.807 Y94.575
G1 F2400 X121.574 Y65.809 E675.31144
G0 F10500 X121.574 Y68.541
G1 F2400 X114.457 Y61.424 E675.50865
G0 F10500 X111.816 Y61.424
G1 F2400 X78.665 Y94.575 E676.42729
G0 F10500 X76.897 Y94.574
G1 F2400 X43.747 Y61.424 E677.34589
G0 F10500 X41.106 Y61.424
G1 F2400 X38.424 Y64.105 E677.42020
G0 F10500 X38.424 Y70.244
G1 F2400 X62.755 Y94.574 E678.09441
G0 F10500 X64.523 Y94.575
G1 F2400 X97.674 Y61.424 E679.01304
G0 F10500 X100.315 Y61.424
G1 F2400 X121.574 Y82.683 E679.60214
G0 F10500 X121.574 Y94.093
G1 F2400 X121.092 Y94.575 E679.61550
G0 F10500 X112.252 Y94.574
G1 F2400 X79.102 Y61.424 E680.53410
G0 F10500 X76.461 Y61.424
G1 F2400 X43.310 Y94.575 E681.45274
G0 F10500 X41.541 Y94.574
G1 F2400 X38.424 Y91.457 E681.53911
G0 F10500 X38.424 Y92.389
G1 F2400 X69.390 Y61.424 E682.39718
G0 F10500 X72.031 Y61.424
G1 F2400 X105.181 Y94.574 E683.31579
G0 F10500 X106.949 Y94.575
G1 F2400 X121.574 Y79.951 E683.72104
G0 F10500 X118.887 Y61.424
G1 F2400 X85.736 Y94.575 E684.63967
G0 F10500 X83.968 Y94.574
G1 F2400 X50.818 Y61.424 E685.55828
G0 F10500 X48.177 Y61.424
G1 F2400 X38.424 Y71.176 E685.82853
;LAYER:8
G0 F10500 X38.250 Y61.250 Z2.425
;TYPE:WALL-INNER
G1 F2100 X121.750 Y61.250 E687.46465
G1 X121.750 Y94.750 E688.12106
G1 X38.250 Y94.750 E689.75719
G1 X38.250 Y61.250 E690.41360
G0 F10500 X37.750 Y60.750
;TYPE:WALL-OUTER
G1 F1800 X122.250 Y60.750 E692.06932
G1 X122.250 Y95.250 E692.74532
G1 X37.750 Y95.250 E694.40105
G1 X37.750 Y60.750 E695.07705
G0 F10500 X38.100 Y61.010
G0 X38.424 Y63.173
;TYPE:FILL
G1 F2400 X69.826 Y94.574 E695.94720
G0 F10500 X71.594 Y94.575
G1 F2400 X104.745 Y61.424 E696.86584
G0 F10500 X107.386 Y61.424
G1 F2400 X121.574 Y75.612 E697.25899
G0 F10500 X121.574 Y72.880
G1 F2400 X99.878 Y94.575 E697.86019
G0 F10500 X98.110 Y94.574
G1 F2400 X64.960 Y61.424 E698.77879
G0 F10500 X62.319 Y61.424
G1 F2400 X38.424 Y85.318 E699.44092
G0 F10500 X38.424 Y84.386
G1 F2400 X48.612 Y94.574 E699.72324
G0 F10500 X50.381 Y94.575
G1 F2400 X83.532 Y61.424 E700.64187
G0 F10500 X86.173 Y61.424
G1 F2400 X119.323 Y94.574 E701.56048
G0 F10500 X114.020 Y94.575
G1 F2400 X121.574 Y87.022 E701.76979
G0 F10500 X121.574 Y89.754
G1 F2400 X93.244 Y61.424 E702.55483
G0 F10500 X90.603 Y61.424
G1 F2400 X57.452 Y94.575 E703.47346
G0 F10500 X55.683 Y94.574
G1 F2400 X38.424 Y77.315 E703.95172
G0 F10500 X38.424 Y78.247
G1 F2400 X55.248 Y61.424 E704.41791
G0 F10500 X57.889 Y61.424
G1 F2400 X91.039 Y94.574 E705.33651
G0 F10500 X92.807 Y94.575
G1 F2400 X121.574 Y65.809 E706.13365
G0 F10500 X121.574 Y68.541
G1 F2400 X114.457 Y61.424 E706.33086
G0 F10500 X111.816 Y61.424
G1 F2400 X78.665 Y94.575 E707.24950
G0 F10500 X76.897 Y94.574
G1 F2400 X43.747 Y61.424 E708.16810
G0 F10500 X41.106 Y61.424
G1 F2400 X38.424 Y64.105 E708.24241
G0 F10500 X38.424 Y70.244
G1 F2400 X62.755 Y94.574 E708.91662
G0 F10500 X64.523 Y94.575
G1 F2400 X97.674 Y61.424 E709.83525
G0 F10500 X100.315 Y61.424
G1 F2400 X121.574 Y82.683 E710.42435
G0 F10500 X121.574 Y94.093
G1 F2400 X121.092 Y94.575 E710.43771
G0 F10500 X112.252 Y94.574
G1 F2400 X79.102 Y61.424 E711.35631
G0 F10500 X76.461 Y61.424
G1 F2400 X43.310 Y94.575 E712.27495
G0 F10500 X41.541 Y94.574
G1 F2400 X38.424 Y91.457 E712.36132
G0 F10500 X38.424 Y92.389
G1 F2400 X69.390 Y61.424 E713.21939
G0 F10500 X72.031 Y61.424
G1 F2400 X105.181 Y94.574 E714.13800
G0 F10500 X106.949 Y94.575
G1 F2400 X121.574 Y79.951 E714.54325
G0 F10500 X118.887 Y61.424
G1 F2400 X85.736 Y94.575 E715.46188
G0 F10500 X83.968 Y94.574
G1 F2400 X50.818 Y61.424 E716.38049
G0 F10500 X48.177 Y61.424
G1 F2400 X38.424 Y71.176 E716.65074
;LAYER:9
G0 F10500 X38.250 Y61.250 Z2.675
;TYPE:WALL-INNER
G1 F2100 X121.750 Y61.250 E718.28686
G1 X121.750 Y94.750 E718.94327
G1 X38.250 Y94.750 E720.57940
G1 X38.250 Y61.250 E721.23581
G0 F10500 X37.750 Y60.750
;TYPE:WALL-OUTER
G1 F1800 X122.250 Y60.750 E722.89153
G1 X122.250 Y95.250 E723.56754
G1 X37.750 Y95.250 E725.22326
G1 X37.750 Y60.750 E725.89926
G0 F10500 X38.100 Y61.010
G0 X38.424 Y63.173
;TYPE:FILL
G1 F2400 X69.826 Y94.574 E726.76941
G0 F10500 X71.594 Y94.575
G1 F2400 X104.745 Y61.424 E727.68805
G0 F10500 X107.386 Y61.424
G1 F2400 X121.574 Y75.612 E728.08120
G0 F10500 X121.574 Y72.880
G1 F2400 X99.878 Y94.575 E728.68240
G0 F10500 X98.110 Y94.574
G1 F2400 X64.960 Y61.424 E729.60100
G0 F10500 X62.319 Y61.424
G1 F2400 X38.424 Y85.318 E730.26313
G0 F10500 X38.424 Y84.386
G1 F2400 X48.612 Y94.574 E730.54545
G0 F10500 X50.381 Y94.575
G1 F2400 X83.532 Y61.424 E731.46408
G0 F10500 X86.173 Y61.424
G1 F2400 X119.323 Y94.574 E732.38269
G0 F10500 X114.020 Y94.575
G1 F2400 X121.574 Y87.022 E732.59200
G0 F10500 X121.574 Y89.754
G1 F2400 X93.244 Y61.424 E733.37704
G0 F10500 X90.603 Y61.424
G1 F2400 X57.452 Y94.575 E734.29567
G0 F10500 X55.683 Y94.574
G1 F2400 X38.424 Y77.315 E734.77393
G0 F10500 X38.424 Y78.247
G1 F2400 X55.248 Y61.424 E735.24012
G0 F10500 X57.889 Y61.424
G1 F2400 X91.039 Y94.574 E736.15872
G0 F10500 X92.807 Y94.575
G1 F2400 X121.574 Y65.809 E736.95586
G0 F10500 X121.574 Y68.541
G1 F2400 X114.457 Y61.424 E737.15308
G0 F10500 X111.816 Y61.424
G1 F2400 X78.665 Y94.575 E738.07171
G0 F10500 X76.897 Y94.574
G1 F2400 X43.747 Y61.424 E738.99031
G0 F10500 X41.106 Y61.424
G1 F2400 X38.424 Y64.105 E739.06462
G0 F10500 X38.424 Y70.244
G1 F2400 X62.755 Y94.574 E739.73883
G0 F10500 X64.523 Y94.575
G1 F2400 X97.674 Y61.424 E740.65747
G0 F10500 X100.315 Y61.424
G1 F2400 X121.574 Y82.683 E741.24656
G0 F10500 X121.574 Y94.093
G1 F2400 X121.092 Y94.575 E741.25992
G0 F10500 X112.252 Y94.574
G1 F2400 X79.102 Y61.424 E742.17853
G0 F10500 X76.461 Y61.424
G1 F2400 X43.310 Y94.575 E743.09716
G0 F10500 X41.541 Y94.574
G1 F2400 X38.424 Y91.457 E743.18353
G0 F10500 X38.424 Y92.389
G1 F2400 X69.390 Y61.424 E744.04160
G0 F10500 X72.031 Y61.424
G1 F2400 X105.181 Y94.574 E744.96021
G0 F10500 X106.949 Y94.575
G1 F2400 X121.574 Y79.951 E745.36546
G0 F10500 X118.887 Y61.424
G1 F2400 X85.736 Y94.575 E746.28410
G0 F10500 X83.968 Y94.574
G1 F2400 X50.818 Y61.424 E747.20270
G0 F10500 X48.177 Y61.424
G1 F2400 X38.424 Y71.176 E747.47295
;LAYER:10
G0 F10500 X38.250 Y61.250 Z2.925
;TYPE:WALL-INNER
G1 F2100 X121.750 Y61.250 E749.10908
G1 X121.750 Y94.750 E749.76549
G1 X38.250 Y94.750 E751.40161
G1 X38.250 Y61.250 E752.05802
G0 F10500 X37.750 Y60.750
;TYPE:WALL-OUTER
G1 F1800 X122.250 Y60.750 E753.71374
G1 X122.250 Y95.250 E754.38975
G1 X37.750 Y95.250 E756.04547
G1 X37.750 Y60.750 E756.72147
G0 F10500 X38.100 Y61.010
G0 X38.424 Y63.173
;TYPE:FILL
G1 F2400 X69.826 Y94.574 E757.59163
G0 F10500 X71.594 Y94.575
G1 F2400 X104.745 Y61.424 E758.51026
G0 F10500 X107.386 Y61.424
G1 F2400 X121.574 Y75.612 E758.90342
G0 F10500 X121.574 Y72.880
G1 F2400 X99.878 Y94.575 E759.50461
G0 F10500 X98.110 Y94.574
G1 F2400 X64.960 Y61.424 E760.42322
G0 F10500 X62.319 Y61.424
G1 F2400 X38.424 Y85.318 E761.08535
G0 F10500 X38.424 Y84.386
G1 F2400 X48.612 Y94.574 E761.36766
G0 F10500 X50.381 Y94.575
G1 F2400 X83.532 Y61.424 E762.28629
G0 F10500 X86.173 Y61.424
G1 F2400 X119.323 Y94.574 E763.20490
G0 F10500 X114.020 Y94.575
G1 F2400 X121.574 Y87.022 E763.41421
G0 F10500 X121.574 Y89.754
G1 F2400 X93.244 Y61.424 E764.19925
G0 F10500 X90.603 Y61.424
G1 F2400 X57.452 Y94.575 E765.11788
G0 F10500 X55.683 Y94.574
G1 F2400 X38.424 Y77.315 E765.59614
G0 F10500 X38.424 Y78.247
G1 F2400 X55.248 Y61.424 E766.06233
G0 F10500 X57.889 Y61.424
G1 F2400 X91.039 Y94.574 E766.98094
G0 F10500 X92.807 Y94.575
G1 F2400 X121.574 Y65.809 E767.77807
G0 F10500 X121.574 Y68.541
G1 F2400 X114.457 Y61.424 E767.97529
G0 F10500 X111.816 Y61.424
G1 F2400 X78.665 Y94.575 E768.89392
G0 F10500 X76.897 Y94.574
G1 F2400 X43.747 Y61.424 E769.81253
G0 F10500 X41.106 Y61.424
G1 F2400 X38.424 Y64.105 E769.88683
G0 F10500 X38.424 Y70.244
G1 F2400 X62.755 Y94.574 E770.56104
G0 F10500 X64.523 Y94.575
G1 F2400 X97.674 Y61.424 E771.47968
G0 F10500 X100.315 Y61.424
G1 F2400 X121.574 Y82.683 E772.06878
G0 F10500 X121.574 Y94.093
G1 F2400 X121.092 Y94.575 E772.08213
G0 F10500 X112.252 Y94.574
G1 F2400 X79.102 Y61.424 E773.00074
G0 F10500 X76.461 Y61.424
G1 F2400 X43.310 Y94.575 E773.91937
G0 F10500 X41.541 Y94.574
G1 F2400 X38.424 Y91.457 E774.00574
G0 F10500 X38.424 Y92.389
G1 F2400 X69.390 Y61.424 E774.86382
G0 F10500 X72.031 Y61.424
G1 F2400 X105.181 Y94.574 E775.78242
G0 F10500 X106.949 Y94.575
G1 F2400 X121.574 Y79.951 E776.18767
G0 F10500 X118.887 Y61.424
G1 F2400 X85.736 Y94.575 E777.10631
G0 F10500 X83.968 Y94.574
G1 F2400 X50.818 Y61.424 E778.02491
G0 F10500 X48.177 Y61.424
G1 F2400 X38.424 Y71.176 E778.29516
;LAYER:11
G0 F10500 X38.250 Y61.250 Z3.175
;TYPE:WALL-INNER
G1 F2100 X121.750 Y61.250 E779.93129
G1 X121.750 Y94.750 E780.58770
G1 X38.250 Y94.750 E782.22382
G1 X38.250 Y61.250 E782.88023
G0 F10500 X37.750 Y60.750
;TYPE:WALL-OUTER
G1 F1800 X122.250 Y60.750 E784.53595
G1 X122.250 Y95.250 E785.21196
G1 X37.750 Y95.250 E786.86768
G1 X37.750 Y60.750 E787.54368
G0 F10500 X38.100 Y61.010
G0 X38.424 Y63.173
;TYPE:FILL
G1 F2400 X69.826 Y94.574 E788.41384
G0 F10500 X71.594 Y94.575
G1 F2400 X104.745 Y61.424 E789.33247
G0 F10500 X107.386 Y61.424
G1 F2400 X121.574 Y75.612 E789.72563
G0 F10500 X121.574 Y72.880
G1 F2400 X99.878 Y94.575 E790.32682
G0 F10500 X98.110 Y94.574
G1 F2400 X64.960 Y61.424 E791.24543
G0 F10500 X62.319 Y61.424
G1 F2400 X38.424 Y85.318 E791.90756
G0 F10500 X38.424 Y84.386
G1 F2400 X48.612 Y94.574 E792.18987
G0 F10500 X50.381 Y94.575
G1 F2400 X83.532 Y61.424 E793.10851
G0 F10500 X86.173 Y61.424
G1 F2400 X119.323 Y94.574 E794.02711
G0 F10500 X114.020 Y94.575
G1 F2400 X121.574 Y87.022 E794.23642
G0 F10500 X121.574 Y89.754
G1 F2400 X93.244 Y61.424 E795.02146
G0 F10500 X90.603 Y61.424
G1 F2400 X57.452 Y94.575 E795.94010
G0 F10500 X55.683 Y94.574
G1 F2400 X38.424 Y77.315 E796.41835
G0 F10500 X38.424 Y78.247
G1 F2400 X55.248 Y61.424 E796.88454
G0 F10500 X57.889 Y61.424
G1 F2400 X91.039 Y94.574 E797.80315
G0 F10500 X92.807 Y94.575
G1 F2400 X121.574 Y65.809 E798.60028
G0 F10500 X121.574 Y68.541
G1 F2400 X114.457 Y61.424 E798.79750
G0 F10500 X111.816 Y61.424
G1 F2400 X78.665 Y94.575 E799.71613
G0 F10500 X76.897 Y94.574
G1 F2400 X43.747 Y61.424 E800.63474
G0 F10500 X41.106 Y61.424
G1 F2400 X38.424 Y64.105 E800.70904
G0 F10500 X38.424 Y70.244
G1 F2400 X62.755 Y94.574 E801.38325
G0 F10500 X64.523 Y94.575
G1 F2400 X97.674 Y61.424 E802.30189
G0 F10500 X100.315 Y61.424
G1 F2400 X121.574 Y82.683 E802.89099
G0 F10500 X121.574 Y94.093
G1 F2400 X121.092 Y94.575 E802.90434
G0 F10500 X112.252 Y94.574
G1 F2400 X79.102 Y61.424 E803.82295
G0 F10500 X76.461 Y61.424
G1 F2400 X43.310 Y94.575 E804.74158
G0 F10500 X41.541 Y94.574
G1 F2400 X38.424 Y91.457 E804.82796
G0 F10500 X38.424 Y92.389
G1 F2400 X69.390 Y61.424 E805.68603
G0 F10500 X72.031 Y61.424
G1 F2400 X105.181 Y94.574 E806.60463
G0 F10500 X106.949 Y94.575
G1 F2400 X121.574 Y79.951 E807.00989
G0 F10500 X118.887 Y61.424
G1 F2400 X85.736 Y94.575 E807.92852
G0 F10500 X83.968 Y94.574
G1 F2400 X50.818 Y61.424 E808.84712
G0 F10500 X48.177 Y61.424
G1 F2400 X38.424 Y71.176 E809.11737
;LAYER:12
G0 F10500 X38.250 Y61.250 Z3.425
;TYPE:WALL-INNER
G1 F2100 X121.750 Y61.250 E810.75350
G1 X121.750 Y94.750 E811.40991
G1 X38.250 Y94.750 E813.04603
G1 X38.250 Y61.250 E813.70244
G0 F10500 X37.750 Y60.750
;TYPE:WALL-OUTER
G1 F1800 X122.250 Y60.750 E815.35817
G1 X122.250 Y95.250 E816.03417
G1 X37.750 Y95.250 E817.68989
G1 X37.750 Y60.750 E818.36589
G0 F10500 X38.100 Y61.010
G0 X38.424 Y63.173
;TYPE:FILL
G1 F2400 X69.826 Y94.574 E819.23605
G0 F10500 X71.594 Y94.575
G1 F2400 X104.745 Y61.424 E820.15468
G0 F10500 X107.386 Y61.424
G1 F2400 X121.574 Y75.612 E820.54784
G0 F10500 X121.574 Y72.880
G1 F2400 X99.878 Y94.575 E821.14903
G0 F10500 X98.110 Y94.574
G1 F2400 X64.960 Y61.424 E822.06764
G0 F10500 X62.319 Y61.424
G1 F2400 X38.424 Y85.318 E822.72977
G0 F10500 X38.424 Y84.386
G1 F2400 X48.612 Y94.574 E823.01208
G0 F10500 X50.381 Y94.575
G1 F2400 X83.532 Y61.424 E823.93072
G0 F10500 X86.173 Y61.424
G1 F2400 X119.323 Y94.574 E824.84932
G0 F10500 X114.020 Y94.575
G1 F2400 X121.574 Y87.022 E825.05863
G0 F10500 X121.574 Y89.754
G1 F2400 X93.244 Y61.424 E825.84367
G0 F10500 X90.603 Y61.424
G1 F2400 X57.452 Y94.575 E826.76231
G0 F10500 X55.683 Y94.574
G1 F2400 X38.424 Y77.315 E827.24056
G0 F10500 X38.424 Y78.247
G1 F2400 X55.248 Y61.424 E827.70675
G0 F10500 X57.889 Y61.424
G1 F2400 X91.039 Y94.574 E828.62536
G0 F10500 X92.807 Y94.575
G1 F2400 X121.574 Y65.809 E829.42249
G0 F10500 X121.574 Y68.541
G1 F2400 X114.457 Y61.424 E829.61971
G0 F10500 X111.816 Y61.424
G1 F2400 X78.665 Y94.575 E830.53834
G0 F10500 X76.897 Y94.574
G1 F2400 X43.747 Y61.424 E831.45695
G0 F10500 X41.106 Y61.424
G1 F2400 X38.424 Y64.105 E831.53125
G0 F10500 X38.424 Y70.244
G1 F2400 X62.755 Y94.574 E832.20547
G0 F10500 X64.523 Y94.575
G1 F2400 X97.674 Y61.424 E833.12410
G0 F10500 X100.315 Y61.424
G1 F2400 X121.574 Y82.683 E833.71320
G0 F10500 X121.574 Y94.093
G1 F2400 X121.092 Y94.575 E833.72655
G0 F10500 X112.252 Y94.574
G1 F2400 X79.102 Y61.424 E834.64516
G0 F10500 X76.461 Y61.424
G1 F2400 X43.310 Y94.575 E835.56379
G0 F10500 X41.541 Y94.574
G1 F2400 X38.424 Y91.457 E835.65017
G0 F10500 X38.424 Y92.389
G1 F2400 X69.390 Y61.424 E836.50824
G0 F10500 X72.031 Y61.424
G1 F2400 X105.181 Y94.574 E837.42684
G0 F10500 X106.949 Y94.575
G1 F2400 X121.574 Y79.951 E837.83210
G0 F10500 X118.887 Y61.424
G1 F2400 X85.736 Y94.575 E838.75073
G0 F10500 X83.968 Y94.574
G1 F2400 X50.818 Y61.424 E839.66934
G0 F10500 X48.177 Y61.424
G1 F2400 X38.424 Y71.176 E839.93958
;LAYER:13
G0 F10500 X38.250 Y61.250 Z3.675
;TYPE:WALL-INNER
G1 F2100 X121.750 Y61.250 E841.57571
G1 X121.750 Y94.750 E842.23212
G1 X38.250 Y94.750 E843.86825
G1 X38.250 Y61.250 E844.52466
G0 F10500 X37.750 Y60.750
;TYPE:WALL-OUTER
G1 F1800 X122.250 Y60.750 E846.18038
G1 X122.250 Y95.250 E846.85638
G1 X37.750 Y95.250 E848.51210
G1 X37.750 Y60.750 E849.18811
G0 F10500 X38.100 Y61.010
G0 X38.424 Y63.173
;TYPE:FILL
G1 F2400 X69.826 Y94.574 E850.05826
G0 F10500 X71.594 Y94.575
G1 F2400 X104.745 Y61.424 E850.97689
G0 F10500 X107.386 Y61.424
G1 F2400 X121.574 Y75.612 E851.37005
G0 F10500 X121.574 Y72.880
G1 F2400 X99.878 Y94.575 E851.97124
G0 F10500 X98.110 Y94.574
G1 F2400 X64.960 Y61.424 E852.88985
G0 F10500 X62.319 Y61.424
G1 F2400 X38.424 Y85.318 E853.55198
G0 F10500 X38.424 Y84.386
G1 F2400 X48.612 Y94.574 E853.83430
G0 F10500 X50.381 Y94.575
G1 F2400 X83.532 Y61.424 E854.75293
G0 F10500 X86.173 Y61.424
G1 F2400 X119.323 Y94.574 E855.67153
G0 F10500 X114.020 Y94.575
G1 F2400 X121.574 Y87.022 E855.88085
G0 F10500 X121.574 Y89.754
G1 F2400 X93.244 Y61.424 E856.66589
G0 F10500 X90.603 Y61.424
G1 F2400 X57.452 Y94.575 E857.58452
G0 F10500 X55.683 Y94.574
G1 F2400 X38.424 Y77.315 E858.06278
G0 F10500 X38.424 Y78.247
G1 F2400 X55.248 Y61.424 E858.52896
G0 F10500 X57.889 Y61.424
G1 F2400 X91.039 Y94.574 E859.44757
G0 F10500 X92.807 Y94.575
G1 F2400 X121.574 Y65.809 E860.24471
G0 F10500 X121.574 Y68.541
G1 F2400 X114.457 Y61.424 E860.44192
G0 F10500 X111.816 Y61.424
G1 F2400 X78.665 Y94.575 E861.36055
G0 F10500 X76.897 Y94.574
G1 F2400 X43.747 Y61.424 E862.27916
G0 F10500 X41.106 Y61.424
G1 F2400 X38.424 Y64.105 E862.35347
G0 F10500 X38.424 Y70.244
G1 F2400 X62.755 Y94.574 E863.02768
G0 F10500 X64.523 Y94.575
G1 F2400 X97.674 Y61.424 E863.94631
G0 F10500 X100.315 Y61.424
G1 F2400 X121.574 Y82.683 E864.53541
G0 F10500 X121.574 Y94.093
G1 F2400 X121.092 Y94.575 E864.54877
G0 F10500 X112.252 Y94.574
G1 F2400 X79.102 Y61.424 E865.46737
G0 F10500 X76.461 Y61.424
G1 F2400 X43.310 Y94.575 E866.38600
G0 F10500 X41.541 Y94.574
G1 F2400 X38.424 Y91.457 E866.47238
G0 F10500 X38.424 Y92.389
G1 F2400 X69.390 Y61.424 E867.33045
G0 F10500 X72.031 Y61.424
G1 F2400 X105.181 Y94.574 E868.24906
G0 F10500 X106.949 Y94.575
G1 F2400 X121.574 Y79.951 E868.65431
G0 F10500 X118.887 Y61.424
G1 F2400 X85.736 Y94.575 E869.57294
G0 F10500 X83.968 Y94.574
G1 F2400 X50.818 Y61.424 E870.49155
G0 F10500 X48.177 Y61.424
G1 F2400 X38.424 Y71.176 E870.76179
;LAYER:14
G0 F10500 X38.250 Y61.250 Z3.925
;TYPE:WALL-INNER
G1 F2100 X121.750 Y61.250 E872.39792
G1 X121.750 Y94.750 E873.05433
G1 X38.250 Y94.750 E874.69046
G1 X38.250 Y61.250 E875.34687
G0 F10500 X37.750 Y60.750
;TYPE:WALL-OUTER
G1 F1800 X122.250 Y60.750 E877.00259
G1 X122.250 Y95.250 E877.67859
G1 X37.750 Y95.250 E879.33431
G1 X37.750 Y60.750 E880.01032
G0 F10500 X38.100 Y61.010
G0 X38.424 Y63.173
;TYPE:FILL
G1 F2400 X69.826 Y94.574 E880.88047
G0 F10500 X71.594 Y94.575
G1 F2400 X104.745 Y61.424 E881.79910
G0 F10500 X107.386 Y61.424
G1 F2400 X121.574 Y75.612 E882.19226
G0 F10500 X121.574 Y72.880
G1 F2400 X99.878 Y94.575 E882.79346
G0 F10500 X98.110 Y94.574
G1 F2400 X64.960 Y61.424 E883.71206
G0 F10500 X62.319 Y61.424
G1 F2400 X38.424 Y85.318 E884.37419
G0 F10500 X38.424 Y84.386
G1 F2400 X48.612 Y94.574 E884.65651
G0 F10500 X50.381 Y94.575
G1 F2400 X83.532 Y61.424 E885.57514
G0 F10500 X86.173 Y61.424
G1 F2400 X119.323 Y94.574 E886.49374
G0 F10500 X114.020 Y94.575
G1 F2400 X121.574 Y87.022 E886.70306
G0 F10500 X121.574 Y89.754
G1 F2400 X93.244 Y61.424 E887.48810
G0 F10500 X90.603 Y61.424
G1 F2400 X57.452 Y94.575 E888.40673
G0 F10500 X55.683 Y94.574
G1 F2400 X38.424 Y77.315 E888.88499
G0 F10500 X38.424 Y78.247
G1 F2400 X55.248 Y61.424 E889.35118
G0 F10500 X57.889 Y61.424
G1 F2400 X91.039 Y94.574 E890.26978
G0 F10500 X92.807 Y94.575
G1 F2400 X121.574 Y65.809 E891.06692
G0 F10500 X121.574 Y68.541
G1 F2400 X114.457 Y61.424 E891.26413
G0 F10500 X111.816 Y61.424
G1 F2400 X78.665 Y94.575 E892.18277
G0 F10500 X76.897 Y94.574
G1 F2400 X43.747 Y61.424 E893.10137
G0 F10500 X41.106 Y61.424
G1 F2400 X38.424 Y64.105 E893.17568
G0 F10500 X38.424 Y70.244
G1 F2400 X62.755 Y94.574 E893.84989
G0 F10500 X64.523 Y94.575
G1 F2400 X97.674 Y61.424 E894.76852
G0 F10500 X100.315 Y61.424
G1 F2400 X121.574 Y82.683 E895.35762
G0 F10500 X121.574 Y94.093
G1 F2400 X121.092 Y94.575 E895.37098
G0 F10500 X112.252 Y94.574
G1 F2400 X79.102 Y61.424 E896.28958
G0 F10500 X76.461 Y61.424
G1 F2400 X43.310 Y94.575 E897.20822
G0 F10500 X41.541 Y94.574
G1 F2400 X38.424 Y91.457 E897.29459
G0 F10500 X38.424 Y92.389
G1 F2400 X69.390 Y61.424 E898.15266
G0 F10500 X72.031 Y61.424
G1 F2400 X105.181 Y94.574 E899.07127
G0 F10500 X106.949 Y94.575
G1 F2400 X121.574 Y79.951 E899.47652
G0 F10500 X118.887 Y61.424
G1 F2400 X85.736 Y94.575 E900.39515
G0 F10500 X83.968 Y94.574
G1 F2400 X50.818 Y61.424 E901.31376
G0 F10500 X48.177 Y61.424
G1 F2400 X38.424 Y71.176 E901.58401
;LAYER:15
G0 F10500 X38.250 Y61.250 Z4.175
;TYPE:WALL-INNER
G1 F2100 X121.750 Y61.250 E903.22013
G1 X121.750 Y94.750 E903.87654
G1 X38.250 Y94.750 E905.51267
G1 X38.250 Y61.250 E906.16908
G0 F10500 X37.750 Y60.750
;TYPE:WALL-OUTER
G1 F1800 X122.250 Y60.750 E907.82480
G1 X122.250 Y95.250 E908.50080
G1 X37.750 Y95.250 E910.15652
G1 X37.750 Y60.750 E910.83253
G0 F10500 X38.100 Y61.010
G0 X38.424 Y63.173
;TYPE:FILL
G1 F2400 X69.826 Y94.574 E911.70268
G0 F10500 X71.594 Y94.575
G1 F2400 X104.745 Y61.424 E912.62132
G0 F10500 X107.386 Y61.424
G1 F2400 X121.574 Y75.612 E913.01447
G0 F10500 X121.574 Y72.880
G1 F2400 X99.878 Y94.575 E913.61567
G0 F10500 X98.110 Y94.574
G1 F2400 X64.960 Y61.424 E914.53427
G0 F10500 X62.319 Y61.424
G1 F2400 X38.424 Y85.318 E915.19640
G0 F10500 X38.424 Y84.386
G1 F2400 X48.612 Y94.574 E915.47872
G0 F10500 X50.381 Y94.575
G1 F2400 X83.532 Y61.424 E916.39735
G0 F10500 X86.173 Y61.424
G1 F2400 X119.323 Y94.574 E917.31596
G0 F10500 X114.020 Y94.575
G1 F2400 X121.574 Y87.022 E917.52527
G0 F10500 X121.574 Y89.754
G1 F2400 X93.244 Y61.424 E918.31031
G0 F10500 X90.603 Y61.424
G1 F2400 X57.452 Y94.575 E919.22894
G0 F10500 X55.683 Y94.574
G1 F2400 X38.424 Y77.315 E919.70720
G0 F10500 X38.424 Y78.247
G1 F2400 X55.248 Y61.424 E920.17339
G0 F10500 X57.889 Y61.424
G1 F2400 X91.039 Y94.574 E921.09199
G0 F10500 X92.807 Y94.575
G1 F2400 X121.574 Y65.809 E921.88913
G0 F10500 X121.574 Y68.541
G1 F2400 X114.457 Y61.424 E922.08634
G0 F10500 X111.816 Y61.424
G1 F2400 X78.665 Y94.575 E923.00498
G0 F10500 X76.897 Y94.574
G1 F2400 X43.747 Y61.424 E923.92358
G0 F10500 X41.106 Y61.424
G1 F2400 X38.424 Y64.105 E923.99789
G0 F10500 X38.424 Y70.244
G1 F2400 X62.755 Y94.574 E924.67210
G0 F10500 X64.523 Y94.575
G1 F2400 X97.674 Y61.424 E925.59073
G0 F10500 X100.315 Y61.424
G1 F2400 X121.574 Y82.683 E926.17983
G0 F10500 X121.574 Y94.093
G1 F2400 X121.092 Y94.575 E926.19319
G0 F10500 X112.252 Y94.574
G1 F2400 X79.102 Y61.424 E927.11179
G0 F10500 X76.461 Y61.424
G1 F2400 X43.310 Y94.575 E928.03043
G0 F10500 X41.541 Y94.574
G1 F2400 X38.424 Y91.457 E928.11680
G0 F10500 X38.424 Y92.389
G1 F2400 X69.390 Y61.424 E928.97487
G0 F10500 X72.031 Y61.424
G1 F2400 X105.181 Y94.574 E929.89348
G0 F10500 X106.949 Y94.575
G1 F2400 X121.574 Y79.951 E930.29873
G0 F10500 X118.887 Y61.424
G1 F2400 X85.736 Y94.575 E931.21736
G0 F10500 X83.968 Y94.574
G1 F2400 X50.818 Y61.424 E932.13597
G0 F10500 X48.177 Y61.424
G1 F2400 X38.424 Y71.176 E932.40622
;LAYER:16
G0 F10500 X38.250 Y61.250 Z4.425
;TYPE:WALL-INNER
G1 F2100 X121.750 Y61.250 E934.04234
G1 X121.750 Y94.750 E934.69875
G1 X38.250 Y94.750 E936.33488
G1 X38.250 Y61.250 E936.99129
G0 F10500 X37.750 Y60.750
;TYPE:WALL-OUTER
G1 F1800 X122.250 Y60.750 E938.64701
G1 X122.250 Y95.250 E939.32301
G1 X37.750 Y95.250 E940.97874
G1 X37.750 Y60.750 E941.65474
G0 F10500 X38.100 Y61.010
G0 X38.424 Y63.173
;TYPE:FILL
G1 F2400 X69.826 Y94.574 E942.52489
G0 F10500 X71.594 Y94.575
G1 F2400 X104.745 Y61.424 E943.44353
G0 F10500 X107.386 Y61.424
G1 F2400 X121.574 Y75.612 E943.83668
G0 F10500 X121.574 Y72.880
G1 F2400 X99.878 Y94.575 E944.43788
G0 F10500 X98.110 Y94.574
G1 F2400 X64.960 Y61.424 E945.35648
G0 F10500 X62.319 Y61.424
G1 F2400 X38.424 Y85.318 E946.01861
G0 F10500 X38.424 Y84.386
G1 F2400 X48.612 Y94.574 E946.30093
G0 F10500 X50.381 Y94.575
G1 F2400 X83.532 Y61.424 E947.21956
G0 F10500 X86.173 Y61.424
G1 F2400 X119.323 Y94.574 E948.13817
G0 F10500 X114.020 Y94.575
G1 F2400 X121.574 Y87.022 E948.34748
G0 F10500 X121.574 Y89.754
G1 F2400 X93.244 Y61.424 E949.13252
G0 F10500 X90.603 Y61.424
G1 F2400 X57.452 Y94.575 E950.05115
G0 F10500 X55.683 Y94.574
G1 F2400 X38.424 Y77.315 E950.52941
G0 F10500 X38.424 Y78.247
G1 F2400 X55.248 Y61.424 E950.99560
G0 F10500 X57.889 Y61.424
G1 F2400 X91.039 Y94.574 E951.91420
G0 F10500 X92.807 Y94.575
G1 F2400 X121.574 Y65.809 E952.71134
G0 F10500 X121.574 Y68.541
G1 F2400 X114.457 Y61.424 E952.90856
G0 F10500 X111.816 Y61.424
G1 F2400 X78.665 Y94.575 E953.82719
G0 F10500 X76.897 Y94.574
G1 F2400 X43.747 Y61.424 E954.74579
G0 F10500 X41.106 Y61.424
G1 F2400 X38.424 Y64.105 E954.82010
G0 F10500 X38.424 Y70.244
G1 F2400 X62.755 Y94.574 E955.49431
G0 F10500 X64.523 Y94.575
G1 F2400 X97.674 Y61.424 E956.41294
G0 F10500 X100.315 Y61.424
G1 F2400 X121.574 Y82.683 E957.00204
G0 F10500 X121.574 Y94.093
G1 F2400 X121.092 Y94.575 E957.01540
G0 F10500 X112.252 Y94.574
G1 F2400 X79.102 Y61.424 E957.93401
G0 F10500 X76.461 Y61.424
G1 F2400 X43.310 Y94.575 E958.85264
G0 F10500 X41.541 Y94.574
G1 F2400 X38.424 Y91.457 E958.93901
G0 F10500 X38.424 Y92.389
G1 F2400 X69.390 Y61.424 E959.79708
G0 F10500 X72.031 Y61.424
G1 F2400 X105.181 Y94.574 E960.71569
G0 F10500 X106.949 Y94.575
G1 F2400 X121.574 Y79.951 E961.12094
G0 F10500 X118.887 Y61.424
G1 F2400 X85.736 Y94.575 E962.03958
G0 F10500 X83.968 Y94.574
G1 F2400 X50.818 Y61.424 E962.95818
G0 F10500 X48.177 Y61.424
G1 F2400 X38.424 Y71.176 E963.22843
;LAYER:17
G0 F10500 X38.250 Y61.250 Z4.675
;TYPE:WALL-INNER
G1 F2100 X121.750 Y61.250 E964.86455
G1 X121.750 Y94.750 E965.52096
G1 X38.250 Y94.750 E967.15709
G1 X38.250 Y61.250 E967.81350
G0 F10500 X37.750 Y60.750
;TYPE:WALL-OUTER
G1 F1800 X122.250 Y60.750 E969.46922
G1 X122.250 Y95.250 E970.14523
G1 X37.750 Y95.250 E971.80095
G1 X37.750 Y60.750 E972.47695
G0 F10500 X38.100 Y61.010
G0 X38.424 Y63.173
;TYPE:FILL
G1 F2400 X69.826 Y94.574 E973.34710
G0 F10500 X71.594 Y94.575
G1 F2400 X104.745 Y61.424 E974.26574
G0 F10500 X107.386 Y61.424
G1 F2400 X121.574 Y75.612 E974.65890
G0 F10500 X121.574 Y72.880
G1 F2400 X99.878 Y94.575 E975.26009
G0 F10500 X98.110 Y94.574
G1 F2400 X64.960 Y61.424 E976.17870
G0 F10500 X62.319 Y61.424
G1 F2400 X38.424 Y85.318 E976.84083
G0 F10500 X38.424 Y84.386
G1 F2400 X48.612 Y94.574 E977.12314
G0 F10500 X50.381 Y94.575
G1 F2400 X83.532 Y61.424 E978.04177
G0 F10500 X86.173 Y61.424
G1 F2400 X119.323 Y94.574 E978.96038
G0 F10500 X114.020 Y94.575
G1 F2400 X121.574 Y87.022 E979.16969
G0 F10500 X121.574 Y89.754
G1 F2400 X93.244 Y61.424 E979.95473
G0 F10500 X90.603 Y61.424
G1 F2400 X57.452 Y94.575 E980.87336
G0 F10500 X55.683 Y94.574
G1 F2400 X38.424 Y77.315 E981.35162
G0 F10500 X38.424 Y78.247
G1 F2400 X55.248 Y61.424 E981.81781
G0 F10500 X57.889 Y61.424
G1 F2400 X91.039 Y94.574 E982.73641
G0 F10500 X92.807 Y94.575
G1 F2400 X121.574 Y65.809 E983.53355
G0 F10500 X121.574 Y68.541
G1 F2400 X114.457 Y61.424 E983.73077
G0 F10500 X111.816 Y61.424
G1 F2400 X78.665 Y94.575 E984.64940
G0 F10500 X76.897 Y94.574
G1 F2400 X43.747 Y61.424 E985.56801
G0 F10500 X41.106 Y61.424
G1 F2400 X38.424 Y64.105 E985.64231
G0 F10500 X38.424 Y70.244
G1 F2400 X62.755 Y94.574 E986.31652
G0 F10500 X64.523 Y94.575
G1 F2400 X97.674 Y61.424 E987.23516
G0 F10500 X100.315 Y61.424
G1 F2400 X121.574 Y82.683 E987.82425
G0 F10500 X121.574 Y94.093
G1 F2400 X121.092 Y94.575 E987.83761
G0 F10500 X112.252 Y94.574
G1 F2400 X79.102 Y61.424 E988.75622
G0 F10500 X76.461 Y61.424
G1 F2400 X43.310 Y94.575 E989.67485
G0 F10500 X41.541 Y94.574
G1 F2400 X38.424 Y91.457 E989.76122
G0 F10500 X38.424 Y92.389
G1 F2400 X69.390 Y61.424 E990.61930
G0 F10500 X72.031 Y61.424
G1 F2400 X105.181 Y94.574 E991.53790
G0 F10500 X106.949 Y94.575
G1 F2400 X121.574 Y79.951 E991.94315
G0 F10500 X118.887 Y61.424
G1 F2400 X85.736 Y94.575 E992.86179
G0 F10500 X83.968 Y94.574
G1 F2400 X50.818 Y61.424 E993.78039
G0 F10500 X48.177 Y61.424
G1 F2400 X38.424 Y71.176 E994.05064
;LAYER:18
G0 F10500 X38.250 Y61.250 Z4.925
;TYPE:WALL-INNER
G1 F2100 X121.750 Y61.250 E995.68677
G1 X121.750 Y94.750 E996.34318
G1 X38.250 Y94.750 E997.97930
G1 X38.250 Y61.250 E998.63571
G0 F10500 X37.750 Y60.750
;TYPE:WALL-OUTER
G1 F1800 X122.250 Y60.750 E1000.29143
G1 X122.250 Y95.250 E1000.96744
G1 X37.750 Y95.250 E1002.62316
G1 X37.750 Y60.750 E1003.29916
G0 F10500 X38.100 Y61.010
G0 X38.424 Y63.173
;TYPE:FILL
G1 F2400 X69.826 Y94.574 E1004.16932
G0 F10500 X71.594 Y94.575
G1 F2400 X104.745 Y61.424 E1005.08795
G0 F10500 X107.386 Y61.424
G1 F2400 X121.574 Y75.612 E1005.48111
G0 F10500 X121.574 Y72.880
G1 F2400 X99.878 Y94.575 E1006.08230
G0 F10500 X98.110 Y94.574
G1 F2400 X64.960 Y61.424 E1007.00091
G0 F10500 X62.319 Y61.424
G1 F2400 X38.424 Y85.318 E1007.66304
G0 F10500 X38.424 Y84.386
G1 F2400 X48.612 Y94.574 E1007.94535
G0 F10500 X50.381 Y94.575
G1 F2400 X83.532 Y61.424 E1008.86399
G0 F10500 X86.173 Y61.424
G1 F2400 X119.323 Y94.574 E1009.78259
G0 F10500 X114.020 Y94.575
G1 F2400 X121.574 Y87.022 E1009.99190
G0 F10500 X121.574 Y89.754
G1 F2400 X93.244 Y61.424 E1010.77694
G0 F10500 X90.603 Y61.424
G1 F2400 X57.452 Y94.575 E1011.69558
G0 F10500 X55.683 Y94.574
G1 F2400 X38.424 Y77.315 E1012.17383
G0 F10500 X38.424 Y78.247
G1 F2400 X55.248 Y61.424 E1012.64002
G0 F10500 X57.889 Y61.424
G1 F2400 X91.039 Y94.574 E1013.55863
G0 F10500 X92.807 Y94.575
G1 F2400 X121.574 Y65.809 E1014.35576
G0 F10500 X121.574 Y68.541
G1 F2400 X114.457 Y61.424 E1014.55298
G0 F10500 X111.816 Y61.424
G1 F2400 X78.665 Y94.575 E1015.47161
G0 F10500 X76.897 Y94.574
G1 F2400 X43.747 Y61.424 E1016.39022
G0 F10500 X41.106 Y61.424
G1 F2400 X38.424 Y64.105 E1016.46452
G0 F10500 X38.424 Y70.244
G1 F2400 X62.755 Y94.574 E1017.13873
G0 F10500 X64.523 Y94.575
G1 F2400 X97.674 Y61.424 E1018.05737
G0 F10500 X100.315 Y61.424
G1 F2400 X121.574 Y82.683 E1018.64647
G0 F10500 X121.574 Y94.093
G1 F2400 X121.092 Y94.575 E1018.65982
G0 F10500 X112.252 Y94.574
G1 F2400 X79.102 Y61.424 E1019.57843
G0 F10500 X76.461 Y61.424
G1 F2400 X43.310 Y94.575 E1020.49706
G0 F10500 X41.541 Y94.574
G1 F2400 X38.424 Y91.457 E1020.58343
G0 F10500 X38.424 Y92.389
G1 F2400 X69.390 Y61.424 E1021.44151
G0 F10500 X72.031 Y61.424
G1 F2400 X105.181 Y94.574 E1022.36011
G0 F10500 X106.949 Y94.575
G1 F2400 X121.574 Y79.951 E1022.76536
G0 F10500 X118.887 Y61.424
G1 F2400 X85.736 Y94.575 E1023.68400
G0 F10500 X83.968 Y94.574
G1 F2400 X50.818 Y61.424 E1024.60260
G0 F10500 X48.177 Y61.424
G1 F2400 X38.424 Y71.176 E1024.87285
;LAYER:19
G0 F10500 X38.250 Y61.250 Z5.175
;TYPE:WALL-INNER
G1 F2100 X121.750 Y61.250 E1026.50898
G1 X121.750 Y94.750 E1027.16539
G1 X38.250 Y94.750 E1028.80151
G1 X38.250 Y61.250 E1029.45792
G0 F10500 X37.750 Y60.750
;TYPE:WALL-OUTER
G1 F1800 X122.250 Y60.750 E1031.11364
G1 X122.250 Y95.250 E1031.78965
G1 X37.750 Y95.250 E1033.44537
G1 X37.750 Y60.750 E1034.12137
G0 F10500 X38.100 Y61.010
G0 X38.424 Y63.173
;TYPE:FILL
G1 F2400 X69.826 Y94.574 E1034.99153
G0 F10500 X71.594 Y94.575
G1 F2400 X104.745 Y61.424 E1035.91016
G0 F10500 X107.386 Y61.424
G1 F2400 X121.574 Y75.612 E1036.30332
G0 F10500 X121.574 Y72.880
G1 F2400 X99.878 Y94.575 E1036.90451
G0 F10500 X98.110 Y94.574
G1 F2400 X64.960 Y61.424 E1037.82312
G0 F10500 X62.319 Y61.424
G1 F2400 X38.424 Y85.318 E1038.48525
G0 F10500 X38.424 Y84.386
G1 F2400 X48.612 Y94.574 E1038.76756
G0 F10500 X50.381 Y94.575
G1 F2400 X83.532 Y61.424 E1039.68620
G0 F10500 X86.173 Y61.424
G1 F2400 X119.323 Y94.574 E1040.60480
G0 F10500 X114.020 Y94.575
G1 F2400 X121.574 Y87.022 E1040.81411
G0 F10500 X121.574 Y89.754
G1 F2400 X93.244 Y61.424 E1041.59915
G0 F10500 X90.603 Y61.424
G1 F2400 X57.452 Y94.575 E1042.51779
G0 F10500 X55.683 Y94.574
G1 F2400 X38.424 Y77.315 E1042.99604
G0 F10500 X38.424 Y78.247
G1 F2400 X55.248 Y61.424 E1043.46223
G0 F10500 X57.889 Y61.424
G1 F2400 X91.039 Y94.574 E1044.38084
G0 F10500 X92.807 Y94.575
G1 F2400 X121.574 Y65.809 E1045.17797
G0 F10500 X121.574 Y68.541
G1 F2400 X114.457 Y61.424 E1045.37519
G0 F10500 X111.816 Y61.424
G1 F2400 X78.665 Y94.575 E1046.29382
G0 F10500 X76.897 Y94.574
G1 F2400 X43.747 Y61.424 E1047.21243
G0 F10500 X41.106 Y61.424
G1 F2400 X38.424 Y64.105 E1047.28673
G0 F10500 X38.424 Y70.244
G1 F2400 X62.755 Y94.574 E1047.96095
G0 F10500 X64.523 Y94.575
G1 F2400 X97.674 Y61.424 E1048.87958
G0 F10500 X100.315 Y61.424
G1 F2400 X121.574 Y82.683 E1049.46868
G0 F10500 X121.574 Y94.093
G1 F2400 X121.092 Y94.575 E1049.48203
G0 F10500 X112.252 Y94.574
G1 F2400 X79.102 Y61.424 E1050.40064
G0 F10500 X76.461 Y61.424
G1 F2400 X43.310 Y94.575 E1051.31927
G0 F10500 X41.541 Y94.574
G1 F2400 X38.424 Y91.457 E1051.40565
G0 F10500 X38.424 Y92.389
G1 F2400 X69.390 Y61.424 E1052.26372
G0 F10500 X72.031 Y61.424
G1 F2400 X105.181 Y94.574 E1053.18232
G0 F10500 X106.949 Y94.575
G1 F2400 X121.574 Y79.951 E1053.58758
G0 F10500 X118.887 Y61.424
G1 F2400 X85.736 Y94.575 E1054.50621
G0 F10500 X83.968 Y94.574
G1 F2400 X50.818 Y61.424 E1055.42481
G0 F10500 X48.177 Y61.424
G1 F2400 X38.424 Y71.176 E1055.69506
;LAYER:20
G0 F10500 X38.250 Y61.250 Z5.425
;TYPE:WALL-INNER
G1 F2100 X121.750 Y61.250 E1057.33119
G1 X121.750 Y94.750 E1057.98760
G1 X38.250 Y94.750 E1059.62372
G1 X38.250 Y61.250 E1060.28014
G0 F10500 X37.750 Y60.750
;TYPE:WALL-OUTER
G1 F1800 X122.250 Y60.750 E1061.93586
G1 X122.250 Y95.250 E1062.61186
G1 X37.750 Y95.250 E1064.26758
G1 X37.750 Y60.750 E1064.94359
G0 F10500 X38.100 Y61.010
G0 X38.424 Y63.173
;TYPE:FILL
G1 F2400 X69.826 Y94.574 E1065.81374
G0 F10500 X71.594 Y94.575
G1 F2400 X104.745 Y61.424 E1066.73237
G0 F10500 X107.386 Y61.424
G1 F2400 X121.574 Y75.612 E1067.12553
G0 F10500 X121.574 Y72.880
G1 F2400 X99.878 Y94.575 E1067.72672
G0 F10500 X98.110 Y94.574
G1 F2400 X64.960 Y61.424 E1068.64533
G0 F10500 X62.319 Y61.424
G1 F2400 X38.424 Y85.318 E1069.30746
G0 F10500 X38.424 Y84.386
G1 F2400 X48.612 Y94.574 E1069.58977
G0 F10500 X50.381 Y94.575
G1 F2400 X83.532 Y61.424 E1070.50841
G0 F10500 X86.173 Y61.424
G1 F2400 X119.323 Y94.574 E1071.42701
G0 F10500 X114.020 Y94.575
G1 F2400 X121.574 Y87.022 E1071.63632
G0 F10500 X121.574 Y89.754
G1 F2400 X93.244 Y61.424 E1072.42137
G0 F10500 X90.603 Y61.424
G1 F2400 X57.452 Y94.575 E1073.34000
G0 F10500 X55.683 Y94.574
G1 F2400 X38.424 Y77.315 E1073.81825
G0 F10500 X38.424 Y78.247
G1 F2400 X55.248 Y61.424 E1074.28444
G0 F10500 X57.889 Y61.424
G1 F2400 X91.039 Y94.574 E1075.20305
G0 F10500 X92.807 Y94.575
G1 F2400 X121.574 Y65.809 E1076.00018
G0 F10500 X121.574 Y68.541
G1 F2400 X114.457 Y61.424 E1076.19740
G0 F10500 X111.816 Y61.424
G1 F2400 X78.665 Y94.575 E1077.11603
G0 F10500 X76.897 Y94.574
G1 F2400 X43.747 Y61.424 E1078.03464
G0 F10500 X41.106 Y61.424
G1 F2400 X38.424 Y64.105 E1078.10895
G0 F10500 X38.424 Y70.244
G1 F2400 X62.755 Y94.574 E1078.78316
G0 F10500 X64.523 Y94.575
G1 F2400 X97.674 Y61.424 E1079.70179
G0 F10500 X100.315 Y61.424
G1 F2400 X121.574 Y82.683 E1080.29089
G0 F10500 X121.574 Y94.093
G1 F2400 X121.092 Y94.575 E1080.30425
G0 F10500 X112.252 Y94.574
G1 F2400 X79.102 Y61.424 E1081.22285
G0 F10500 X76.461 Y61.424
G1 F2400 X43.310 Y94.575 E1082.14148
G0 F10500 X41.541 Y94.574
G1 F2400 X38.424 Y91.457 E1082.22786
G0 F10500 X38.424 Y92.389
G1 F2400 X69.390 Y61.424 E1083.08593
G0 F10500 X72.031 Y61.424
G1 F2400 X105.181 Y94.574 E1084.00453
G0 F10500 X106.949 Y94.575
G1 F2400 X121.574 Y79.951 E1084.40979
G0 F10500 X118.887 Y61.424
G1 F2400 X85.736 Y94.575 E1085.32842
G0 F10500 X83.968 Y94.574
G1 F2400 X50.818 Y61.424 E1086.24703
G0 F10500 X48.177 Y61.424
G1 F2400 X38.424 Y71.176 E1086.51727
;LAYER:21
G0 F10500 X38.250 Y61.250 Z5.675
;TYPE:WALL-INNER
G1 F2100 X121.750 Y61.250 E1088.15340
G1 X121.750 Y94.750 E1088.80981
G1 X38.250 Y94.750 E1090.44594
G1 X38.250 Y61.250 E1091.10235
G0 F10500 X37.750 Y60.750
;TYPE:WALL-OUTER
G1 F1800 X122.250 Y60.750 E1092.75807
G1 X122.250 Y95.250 E1093.43407
G1 X37.750 Y95.250 E1095.08979
G1 X37.750 Y60.750 E1095.76580
G0 F10500 X38.100 Y61.010
G0 X38.424 Y63.173
;TYPE:FILL
G1 F2400 X69.826 Y94.574 E1096.63595
G0 F10500 X71.594 Y94.575
G1 F2400 X104.745 Y61.424 E1097.55458
G0 F10500 X107.386 Y61.424
G1 F2400 X121.574 Y75.612 E1097.94774
G0 F10500 X121.574 Y72.880
G1 F2400 X99.878 Y94.575 E1098.54894
G0 F10500 X98.110 Y94.574
G1 F2400 X64.960 Y61.424 E1099.46754
G0 F10500 X62.319 Y61.424
G1 F2400 X38.424 Y85.318 E1100.12967
G0 F10500 X38.424 Y84.386
G1 F2400 X48.612 Y94.574 E1100.41199
G0 F10500 X50.381 Y94.575
G1 F2400 X83.532 Y61.424 E1101.33062
G0 F10500 X86.173 Y61.424
G1 F2400 X119.323 Y94.574 E1102.24922
G0 F10500 X114.020 Y94.575
G1 F2400 X121.574 Y87.022 E1102.45854
G0 F10500 X121.574 Y89.754
G1 F2400 X93.244 Y61.424 E1103.24358
G0 F10500 X90.603 Y61.424
G1 F2400 X57.452 Y94.575 E1104.16221
G0 F10500 X55.683 Y94.574
G1 F2400 X38.424 Y77.315 E1104.64047
G0 F10500 X38.424 Y78.247
G1 F2400 X55.248 Y61.424 E1105.10665
G0 F10500 X57.889 Y61.424
G1 F2400 X91.039 Y94.574 E1106.02526
G0 F10500 X92.807 Y94.575
G1 F2400 X121.574 Y65.809 E1106.82240
G0 F10500 X121.574 Y68.541
G1 F2400 X114.457 Y61.424 E1107.01961
G0 F10500 X111.816 Y61.424
G1 F2400 X78.665 Y94.575 E1107.93825
G0 F10500 X76.897 Y94.574
G1 F2400 X43.747 Y61.424 E1108.85685
G0 F10500 X41.106 Y61.424
G1 F2400 X38.424 Y64.105 E1108.93116
G0 F10500 X38.424 Y70.244
G1 F2400 X62.755 Y94.574 E1109.60537
G0 F10500 X64.523 Y94.575
G1 F2400 X97.674 Y61.424 E1110.52400
G0 F10500 X100.315 Y61.424
G1 F2400 X121.574 Y82.683 E1111.11310
G0 F10500 X121.574 Y94.093
G1 F2400 X121.092 Y94.575 E1111.12646
G0 F10500 X112.252 Y94.574
G1 F2400 X79.102 Y61.424 E1112.04506
G0 F10500 X76.461 Y61.424
G1 F2400 X43.310 Y94.575 E1112.96370
G0 F10500 X41.541 Y94.574
G1 F2400 X38.424 Y91.457 E1113.05007
G0 F10500 X38.424 Y92.389
G1 F2400 X69.390 Y61.424 E1113.90814
G0 F10500 X72.031 Y61.424
G1 F2400 X105.181 Y94.574 E1114.82675
G0 F10500 X106.949 Y94.575
G1 F2400 X121.574 Y79.951 E1115.23200
G0 F10500 X118.887 Y61.424
G1 F2400 X85.736 Y94.575 E1116.15063
G0 F10500 X83.968 Y94.574
G1 F2400 X50.818 Y61.424 E1117.06924
G0 F10500 X48.177 Y61.424
G1 F2400 X38.424 Y71.176 E1117.33948
;LAYER:22
G0 F10500 X38.250 Y61.250 Z5.925
;TYPE:WALL-INNER
G1 F2100 X121.750 Y61.250 E1118.97561
G1 X121.750 Y94.750 E1119.63202
G1 X38.250 Y94.750 E1121.26815
G1 X38.250 Y61.250 E1121.92456
G0 F10500 X37.750 Y60.750
;TYPE:WALL-OUTER
G1 F1800 X122.250 Y60.750 E1123.58028
G1 X122.250 Y95.250 E1124.25628
G1 X37.750 Y95.250 E1125.91200
G1 X37.750 Y60.750 E1126.58801
G0 F10500 X38.100 Y61.010
G0 X38.424 Y63.173
;TYPE:FILL
G1 F2400 X69.826 Y94.574 E1127.45816
G0 F10500 X71.594 Y94.575
G1 F2400 X104.745 Y61.424 E1128.37679
G0 F10500 X107.386 Y61.424
G1 F2400 X121.574 Y75.612 E1128.76995
G0 F10500 X121.574 Y72.880
G1 F2400 X99.878 Y94.575 E1129.37115
G0 F10500 X98.110 Y94.574
G1 F2400 X64.960 Y61.424 E1130.28975
G0 F10500 X62.319 Y61.424
G1 F2400 X38.424 Y85.318 E1130.95188
G0 F10500 X38.424 Y84.386
G1 F2400 X48.612 Y94.574 E1131.23420
G0 F10500 X50.381 Y94.575
G1 F2400 X83.532 Y61.424 E1132.15283
G0 F10500 X86.173 Y61.424
G1 F2400 X119.323 Y94.574 E1133.07144
G0 F10500 X114.020 Y94.575
G1 F2400 X121.574 Y87.022 E1133.28075
G0 F10500 X121.574 Y89.754
G1 F2400 X93.244 Y61.424 E1134.06579
G0 F10500 X90.603 Y61.424
G1 F2400 X57.452 Y94.575 E1134.98442
G0 F10500 X55.683 Y94.574
G1 F2400 X38.424 Y77.315 E1135.46268
G0 F10500 X38.424 Y78.247
G1 F2400 X55.248 Y61.424 E1135.92887
G0 F10500 X57.889 Y61.424
G1 F2400 X91.039 Y94.574 E1136.84747
G0 F10500 X92.807 Y94.575
G1 F2400 X121.574 Y65.809 E1137.64461
G0 F10500 X121.574 Y68.541
G1 F2400 X114.457 Y61.424 E1137.84182
G0 F10500 X111.816 Y61.424
G1 F2400 X78.665 Y94.575 E1138.76046
G0 F10500 X76.897 Y94.574
G1 F2400 X43.747 Y61.424 E1139.67906
G0 F10500 X41.106 Y61.424
G1 F2400 X38.424 Y64.105 E1139.75337
G0 F10500 X38.424 Y70.244
G1 F2400 X62.755 Y94.574 E1140.42758
G0 F10500 X64.523 Y94.575
G1 F2400 X97.674 Y61.424 E1141.34621
G0 F10500 X100.315 Y61.424
G1 F2400 X121.574 Y82.683 E1141.93531
G0 F10500 X121.574 Y94.093
G1 F2400 X121.092 Y94.575 E1141.94867
G0 F10500 X112.252 Y94.574
G1 F2400 X79.102 Y61.424 E1142.86727
G0 F10500 X76.461 Y61.424
G1 F2400 X43.310 Y94.575 E1143.78591
G0 F10500 X41.541 Y94.574
G1 F2400 X38.424 Y91.457 E1143.87228
G0 F10500 X38.424 Y92.389
G1 F2400 X69.390 Y61.424 E1144.73035
G0 F10500 X72.031 Y61.424
G1 F2400 X105.181 Y94.574 E1145.64896
G0 F10500 X106.949 Y94.575
G1 F2400 X121.574 Y79.951 E1146.05421
G0 F10500 X118.887 Y61.424
G1 F2400 X85.736 Y94.575 E1146.97284
G0 F10500 X83.968 Y94.574
G1 F2400 X50.818 Y61.424 E1147.89145
G0 F10500 X48.177 Y61.424
G1 F2400 X38.424 Y71.176 E1148.16170
;LAYER:23
G0 F10500 X38.250 Y61.250 Z6.175
;TYPE:WALL-INNER
G1 F2100 X121.750 Y61.250 E1149.79782
G1 X121.750 Y94.750 E1150.45423
G1 X38.250 Y94.750 E1152.09036
G1 X38.250 Y61.250 E1152.74677
G0 F10500 X37.750 Y60.750
;TYPE:WALL-OUTER
G1 F1800 X122.250 Y60.750 E1154.40249
G1 X122.250 Y95.250 E1155.07849
G1 X37.750 Y95.250 E1156.73422
G1 X37.750 Y60.750 E1157.41022
G0 F10500 X38.100 Y61.010
G0 X38.424 Y63.173
;TYPE:FILL
G1 F2400 X69.826 Y94.574 E1158.28037
G0 F10500 X71.594 Y94.575
G1 F2400 X104.745 Y61.424 E1159.19901
G0 F10500 X107.386 Y61.424
G1 F2400 X121.574 Y75.612 E1159.59216
G0 F10500 X121.574 Y72.880
G1 F2400 X99.878 Y94.575 E1160.19336
G0 F10500 X98.110 Y94.574
G1 F2400 X64.960 Y61.424 E1161.11196
G0 F10500 X62.319 Y61.424
G1 F2400 X38.424 Y85.318 E1161.77409
G0 F10500 X38.424 Y84.386
G1 F2400 X48.612 Y94.574 E1162.05641
G0 F10500 X50.381 Y94.575
G1 F2400 X83.532 Y61.424 E1162.97504
G0 F10500 X86.173 Y61.424
G1 F2400 X119.323 Y94.574 E1163.89365
G0 F10500 X114.020 Y94.575
G1 F2400 X121.574 Y87.022 E1164.10296
G0 F10500 X121.574 Y89.754
G1 F2400 X93.244 Y61.424 E1164.88800
G0 F10500 X90.603 Y61.424
G1 F2400 X57.452 Y94.575 E1165.80663
G0 F10500 X55.683 Y94.574
G1 F2400 X38.424 Y77.315 E1166.28489
G0 F10500 X38.424 Y78.247
G1 F2400 X55.248 Y61.424 E1166.75108
G0 F10500 X57.889 Y61.424
G1 F2400 X91.039 Y94.574 E1167.66968
G0 F10500 X92.807 Y94.575
G1 F2400 X121.574 Y65.809 E1168.46682
G0 F10500 X121.574 Y68.541
G1 F2400 X114.457 Y61.424 E1168.66403
G0 F10500 X111.816 Y61.424
G1 F2400 X78.665 Y94.575 E1169.58267
G0 F10500 X76.897 Y94.574
G1 F2400 X43.747 Y61.424 E1170.50127
G0 F10500 X41.106 Y61.424
G1 F2400 X38.424 Y64.105 E1170.57558
G0 F10500 X38.424 Y70.244
G1 F2400 X62.755 Y94.574 E1171.24979
G0 F10500 X64.523 Y94.575
G1 F2400 X97.674 Y61.424 E1172.16842
G0 F10500 X100.315 Y61.424
G1 F2400 X121.574 Y82.683 E1172.75752
G0 F10500 X121.574 Y94.093
G1 F2400 X121.092 Y94.575 E1172.77088
G0 F10500 X112.252 Y94.574
G1 F2400 X79.102 Y61.424 E1173.68948
G0 F10500 X76.461 Y61.424
G1 F2400 X43.310 Y94.575 E1174.60812
G0 F10500 X41.541 Y94.574
G1 F2400 X38.424 Y91.457 E1174.69449
G0 F10500 X38.424 Y92.389
G1 F2400 X69.390 Y61.424 E1175.55256
G0 F10500 X72.031 Y61.424
G1 F2400 X105.181 Y94.574 E1176.47117
G0 F10500 X106.949 Y94.575
G1 F2400 X121.574 Y79.951 E1176.87642
G0 F10500 X118.887 Y61.424
G1 F2400 X85.736 Y94.575 E1177.79505
G0 F10500 X83.968 Y94.574
G1 F2400 X50.818 Y61.424 E1178.71366
G0 F10500 X48.177 Y61.424
G1 F2400 X38.424 Y71.176 E1178.98391
;LAYER:24
G0 F10500 X38.250 Y61.250 Z6.425
;TYPE:WALL-INNER
G1 F2100 X121.750 Y61.250 E1180.62003
G1 X121.750 Y94.750 E1181.27644
G1 X38.250 Y94.750 E1182.91257
G1 X38.250 Y61.250 E1183.56898
G0 F10500 X37.750 Y60.750
;TYPE:WALL-OUTER
G1 F1800 X122.250 Y60.750 E1185.22470
G1 X122.250 Y95.250 E1185.90071
G1 X37.750 Y95.250 E1187.55643
G1 X37.750 Y60.750 E1188.23243
G0 F10500 X38.100 Y61.010
G0 X38.424 Y63.173
;TYPE:FILL
G1 F2400 X69.826 Y94.574 E1189.10258
G0 F10500 X71.594 Y94.575
G1 F2400 X104.745 Y61.424 E1190.02122
G0 F10500 X107.386 Y61.424
G1 F2400 X121.574 Y75.612 E1190.41437
G0 F10500 X121.574 Y72.880
G1 F2400 X99.878 Y94.575 E1191.01557
G0 F10500 X98.110 Y94.574
G1 F2400 X64.960 Y61.424 E1191.93417
G0 F10500 X62.319 Y61.424
G1 F2400 X38.424 Y85.318 E1192.59630
G0 F10500 X38.424 Y84.386
G1 F2400 X48.612 Y94.574 E1192.87862
G0 F10500 X50.381 Y94.575
G1 F2400 X83.532 Y61.424 E1193.79725
G0 F10500 X86.173 Y61.424
G1 F2400 X119.323 Y94.574 E1194.71586
G0 F10500 X114.020 Y94.575
G1 F2400 X121.574 Y87.022 E1194.92517
G0 F10500 X121.574 Y89.754
G1 F2400 X93.244 Y61.424 E1195.71021
G0 F10500 X90.603 Y61.424
G1 F2400 X57.452 Y94.575 E1196.62884
G0 F10500 X55.683 Y94.574
G1 F2400 X38.424 Y77.315 E1197.10710
G0 F10500 X38.424 Y78.247
G1 F2400 X55.248 Y61.424 E1197.57329
G0 F10500 X57.889 Y61.424
G1 F2400 X91.039 Y94.574 E1198.49189
G0 F10500 X92.807 Y94.575
G1 F2400 X121.574 Y65.809 E1199.28903
G0 F10500 X121.574 Y68.541
G1 F2400 X114.457 Y61.424 E1199.48625
G0 F10500 X111.816 Y61.424
G1 F2400 X78.665 Y94.575 E1200.40488
G0 F10500 X76.897 Y94.574
G1 F2400 X43.747 Y61.424 E1201.32348
G0 F10500 X41.106 Y61.424
G1 F2400 X38.424 Y64.105 E1201.39779
G0 F10500 X38.424 Y70.244
G1 F2400 X62.755 Y94.574 E1202.07200
G0 F10500 X64.523 Y94.575
G1 F2400 X97.674 Y61.424 E1202.99064
G0 F10500 X100.315 Y61.424
G1 F2400 X121.574 Y82.683 E1203.57973
G0 F10500 X121.574 Y94.093
G1 F2400 X121.092 Y94.575 E1203.59309
G0 F10500 X112.252 Y94.574
G1 F2400 X79.102 Y61.424 E1204.51170
G0 F10500 X76.461 Y61.424
G1 F2400 X43.310 Y94.575 E1205.43033
G0 F10500 X41.541 Y94.574
G1 F2400 X38.424 Y91.457 E1205.51670
G0 F10500 X38.424 Y92.389
G1 F2400 X69.390 Y61.424 E1206.37477
G0 F10500 X72.031 Y61.424
G1 F2400 X105.181 Y94.574 E1207.29338
G0 F10500 X106.949 Y94.575
G1 F2400 X121.574 Y79.951 E1207.69863
G0 F10500 X118.887 Y61.424
G1 F2400 X85.736 Y94.575 E1208.61727
G0 F10500 X83.968 Y94.574
G1 F2400 X50.818 Y61.424 E1209.53587
G0 F10500 X48.177 Y61.424
G1 F2400 X38.424 Y71.176 E1209.80612
;LAYER:25
G0 F10500 X38.250 Y61.250 Z6.675
;TYPE:WALL-INNER
G1 F2100 X121.750 Y61.250 E1211.44225
G1 X121.750 Y94.750 E1212.09866
G1 X38.250 Y94.750 E1213.73478
G1 X38.250 Y61.250 E1214.39119
G0 F10500 X37.750 Y60.750
;TYPE:WALL-OUTER
G1 F1800 X122.250 Y60.750 E1216.04691
G1 X122.250 Y95.250 E1216.72292
G1 X37.750 Y95.250 E1218.37864
G1 X37.750 Y60.750 E1219.05464
G0 F10500 X38.100 Y61.010
G0 X38.424 Y63.173
;TYPE:FILL
G1 F2400 X69.826 Y94.574 E1219.92480
G0 F10500 X71.594 Y94.575
G1 F2400 X104.745 Y61.424 E1220.84343
G0 F10500 X107.386 Y61.424
G1 F2400 X121.574 Y75.612 E1221.23659
G0 F10500 X121.574 Y72.880
G1 F2400 X99.878 Y94.575 E1221.83778
G0 F10500 X98.110 Y94.574
G1 F2400 X64.960 Y61.424 E1222.75639
G0 F10500 X62.319 Y61.424
G1 F2400 X38.424 Y85.318 E1223.41852
G0 F10500 X38.424 Y84.386
G1 F2400 X48.612 Y94.574 E1223.70083
G0 F10500 X50.381 Y94.575
G1 F2400 X83.532 Y61.424 E1224.61946
G0 F10500 X86.173 Y61.424
G1 F2400 X119.323 Y94.574 E1225.53807
G0 F10500 X114.020 Y94.575
G1 F2400 X121.574 Y87.022 E1225.74738
G0 F10500 X121.574 Y89.754
G1 F2400 X93.244 Y61.424 E1226.53242
G0 F10500 X90.603 Y61.424
G1 F2400 X57.452 Y94.575 E1227.45105
G0 F10500 X55.683 Y94.574
G1 F2400 X38.424 Y77.315 E1227.92931
G0 F10500 X38.424 Y78.247
G1 F2400 X55.248 Y61.424 E1228.39550
G0 F10500 X57.889 Y61.424
G1 F2400 X91.039 Y94.574 E1229.31411
G0 F10500 X92.807 Y94.575
G1 F2400 X121.574 Y65.809 E1230.11124
G0 F10500 X121.574 Y68.541
G1 F2400 X114.457 Y61.424 E1230.30846
G0 F10500 X111.816 Y61.424
G1 F2400 X78.665 Y94.575 E1231.22709
G0 F10500 X76.897 Y94.574
G1 F2400 X43.747 Y61.424 E1232.14570
G0 F10500 X41.106 Y61.424
G1 F2400 X38.424 Y64.105 E1232.22000
G0 F10500 X38.424 Y70.244
G1 F2400 X62.755 Y94.574 E1232.89421
G0 F10500 X64.523 Y94.575
G1 F2400 X97.674 Y61.424 E1233.81285
G0 F10500 X100.315 Y61.424
G1 F2400 X121.574 Y82.683 E1234.40195
G0 F10500 X121.574 Y94.093
G1 F2400 X121.092 Y94.575 E1234.41530
G0 F10500 X112.252 Y94.574
G1 F2400 X79.102 Y61.424 E1235.33391
G0 F10500 X76.461 Y61.424
G1 F2400 X43.310 Y94.575 E1236.25254
G0 F10500 X41.541 Y94.574
G1 F2400 X38.424 Y91.457 E1236.33891
G0 F10500 X38.424 Y92.389
G1 F2400 X69.390 Y61.424 E1237.19699
G0 F10500 X72.031 Y61.424
G1 F2400 X105.181 Y94.574 E1238.11559
G0 F10500 X106.949 Y94.575
G1 F2400 X121.574 Y79.951 E1238.52084
G0 F10500 X118.887 Y61.424
G1 F2400 X85.736 Y94.575 E1239.43948
G0 F10500 X83.968 Y94.574
G1 F2400 X50.818 Y61.424 E1240.35808
G0 F10500 X48.177 Y61.424
G1 F2400 X38.424 Y71.176 E1240.62833
;LAYER:26
G0 F10500 X38.250 Y61.250 Z6.925
;TYPE:WALL-INNER
G1 F2100 X121.750 Y61.250 E1242.26446
G1 X121.750 Y94.750 E1242.92087
G1 X38.250 Y94.750 E1244.55699
G1 X38.250 Y61.250 E1245.21340
G0 F10500 X37.750 Y60.750
;TYPE:WALL-OUTER
G1 F1800 X122.250 Y60.750 E1246.86912
G1 X122.250 Y95.250 E1247.54513
G1 X37.750 Y95.250 E1249.20085
G1 X37.750 Y60.750 E1249.87685
G0 F10500 X38.100 Y61.010
G0 X38.424 Y63.173
;TYPE:FILL
G1 F2400 X69.826 Y94.574 E1250.74701
G0 F10500 X71.594 Y94.575
G1 F2400 X104.745 Y61.424 E1251.66564
G0 F10500 X107.386 Y61.424
G1 F2400 X121.574 Y75.612 E1252.05880
G0 F10500 X121.574 Y72.880
G1 F2400 X99.878 Y94.575 E1252.65999
G0 F10500 X98.110 Y94.574
G1 F2400 X64.960 Y61.424 E1253.57860
G0 F10500 X62.319 Y61.424
G1 F2400 X38.424 Y85.318 E1254.24073
G0 F10500 X38.424 Y84.386
G1 F2400 X48.612 Y94.574 E1254.52304
G0 F10500 X50.381 Y94.575
G1 F2400 X83.532 Y61.424 E1255.44168
G0 F10500 X86.173 Y61.424
G1 F2400 X119.323 Y94.574 E1256.36028
G0 F10500 X114.020 Y94.575
G1 F2400 X121.574 Y87.022 E1256.56959
G0 F10500 X121.574 Y89.754
G1 F2400 X93.244 Y61.424 E1257.35463
G0 F10500 X90.603 Y61.424
G1 F2400 X57.452 Y94.575 E1258.27327
G0 F10500 X55.683 Y94.574
G1 F2400 X38.424 Y77.315 E1258.75152
G0 F10500 X38.424 Y78.247
G1 F2400 X55.248 Y61.424 E1259.21771
G0 F10500 X57.889 Y61.424
G1 F2400 X91.039 Y94.574 E1260.13632
G0 F10500 X92.807 Y94.575
G1 F2400 X121.574 Y65.809 E1260.93345
G0 F10500 X121.574 Y68.541
G1 F2400 X114.457 Y61.424 E1261.13067
G0 F10500 X111.816 Y61.424
G1 F2400 X78.665 Y94.575 E1262.04930
G0 F10500 X76.897 Y94.574
G1 F2400 X43.747 Y61.424 E1262.96791
G0 F10500 X41.106 Y61.424
G1 F2400 X38.424 Y64.105 E1263.04221
G0 F10500 X38.424 Y70.244
G1 F2400 X62.755 Y94.574 E1263.71643
G0 F10500 X64.523 Y94.575
G1 F2400 X97.674 Y61.424 E1264.63506
G0 F10500 X100.315 Y61.424
G1 F2400 X121.574 Y82.683 E1265.22416
G0 F10500 X121.574 Y94.093
G1 F2400 X121.092 Y94.575 E1265.23751
G0 F10500 X112.252 Y94.574
G1 F2400 X79.102 Y61.424 E1266.15612
G0 F10500 X76.461 Y61.424
G1 F2400 X43.310 Y94.575 E1267.07475
G0 F10500 X41.541 Y94.574
G1 F2400 X38.424 Y91.457 E1267.16113
G0 F10500 X38.424 Y92.389
G1 F2400 X69.390 Y61.424 E1268.01920
G0 F10500 X72.031 Y61.424
G1 F2400 X105.181 Y94.574 E1268.93780
G0 F10500 X106.949 Y94.575
G1 F2400 X121.574 Y79.951 E1269.34306
G0 F10500 X118.887 Y61.424
G1 F2400 X85.736 Y94.575 E1270.26169
G0 F10500 X83.968 Y94.574
G1 F2400 X50.818 Y61.424 E1271.18029
G0 F10500 X48.177 Y61.424
